!!!COM: L van Beethoven
!!!OTL: String Quartet Op18 No4
**kern	**dynam	**kern	**dynam	**kern	**dynam	**kern	**dynam	**mxhm
*part4	*part4	*part3	*part3	*part2	*part2	*part1	*part1	*part1
*staff4	*	*staff3	*	*staff2	*	*staff1	*	*
*I"Violoncello	*	*I"Viola	*	*I"Violin II	*	*I"Violin I	*	*
*clefF4	*	*clefC3	*	*clefG2	*	*clefG2	*	*
*k[f#c#g#]	*	*k[f#c#g#]	*	*k[f#c#g#]	*	*k[f#c#g#]	*	*
*M4/4	*	*M4/4	*	*M4/4	*	*M4/4	*	*
!LO:TX:a:B:t=Allegro ma non tanto	!	!LO:TX:a:B:t=Allegro ma non tanto	!	!LO:TX:a:B:t=Allegro ma non tanto	!LO:DY:a	!LO:TX:a:B:t=Allegro ma non tanto	!	!
4r	.	4r	.	4r	p	4c#	.	.c.i
=1!|:	=1!|:	=1!|:	=1!|:	=1!|:	=1!|:	=1!|:	=1!|:	=1!|:
8FF#L	p	(2.A	p	(2.c#	p	[2f#	.	i[i
8F#	.	.	.	.	.	.	.	.
8F#	.	.	.	.	.	.	.	.
8F#J	.	.	.	.	.	.	.	.
8F#L	.	.	.	.	.	8f#L]	.	.
.	.	.	.	.	.	16qqg#/LL	.	.
.	.	.	.	.	.	16qqf#/	.	.
.	.	.	.	.	.	16qqe#/JJ	.	.
8F#	.	.	.	.	.	(8f#	.	.
8F#	.	4B)	.	4e#)	.	8a	.	#viio64(4)
8F#J	.	.	.	.	.	8g#J)	.	#viio64
=2	=2	=2	=2	=2	=2	=2	=2	=2
!	!	!	!LO:DY:a	!	!	!	!	!
8F#L	sf	(4.d	sf sf	(2e#	.	(2g#	sf	#viio2
8F#	.	.	.	.	.	.	.	.
8F#	.	.	.	.	.	.	.	.
8F#J	.	8B)	.	.	.	.	.	.
8F#L	.	4A'	.	4c#')	.	4f#')	.	i6
8F#	.	.	.	.	.	.	.	.
8F#	.	4r	.	4r	.	4f#	.	.
8F#J	.	.	.	.	.	.	.	.
=3	=3	=3	=3	=3	=3	=3	=3	=3
8FF#L	.	(2.d	.	(2.f#	.	[2b	.	iv6
8F#	.	.	.	.	.	.	.	.
8F#	.	.	.	.	.	.	.	.
8F#J	.	.	.	.	.	.	.	.
8F#L	.	.	.	.	.	8bL]	.	.
.	.	.	.	.	.	16qqcc#/LL	.	.
.	.	.	.	.	.	16qqb/	.	.
.	.	.	.	.	.	16qqa#/JJ	.	.
8F#	.	.	.	.	.	(8b	.	.
8F#	.	4e)	.	4a#)	.	8dd	.	#iiio64(4)
8F#J	.	.	.	.	.	8cc#J)	.	#iiio64
=4	=4	=4	=4	=4	=4	=4	=4	=4
8F#L	sf	(4.gX	sf	(2a#	sf	(2cc#	sf	#iiio2
8F#	.	.	.	.	.	.	.	.
8F#	.	.	.	.	.	.	.	.
8F#J	.	8e)	.	.	.	.	.	.
8F#L	.	4d'	.	4f#')	.	4b')	.	iv6
8F#	.	.	.	.	.	.	.	.
8F#	.	4r	.	4r	.	4b	.	.
8F#J	.	.	.	.	.	.	.	.
=5	=5	=5	=5	=5	=5	=5	=5	=5
8FF#L	.	4r	.	4r	.	(8bL	.	.
8F#	.	.	.	.	.	8gg#J)	.	.
8F#	.	(2d	.	(2b	.	(2gg#	.	iio6
8F#J	.	.	.	.	.	.	.	.
8F#L	.	.	.	.	.	.	.	.
8F#	.	.	.	.	.	.	.	.
8F#	.	4c#)	.	4a)	.	4ff#)	.	i64
8F#J	.	.	.	.	.	.	.	.
=6	=6	=6	=6	=6	=6	=6	=6	=6
8FF#L	.	(8BL	.	(8g#L	.	(8ee#L	.	#viio64
8F#	.	8e#J)	.	8ddJ)	.	8bbJ)	.	#viio7
8F#	.	(2e#	.	(2dd	.	(2bb	.	.
8F#J	.	.	.	.	.	.	.	.
8F#L	.	.	.	.	.	.	.	.
8F#	.	.	.	.	.	.	.	.
8F#	.	4f#)	.	4cc#)	.	4aa)	.	i]
8F#J	.	.	.	.	.	.	.	.
=7	=7	=7	=7	=7	=7	=7	=7	=7
8BL	.	8bL	.	8ddL	.	(8aaL	.	ii6(2)
8B	.	8b	.	8dd	.	8gg#J)	.	ii6
8d	.	8a	.	8b#X	.	(2ff#	.	#viio7
8dJ	.	8aJ	.	8b#J	.	.	.	.
8B#XL	.	8aL	.	8dd#L	.	.	.	.
8B#	.	8a	.	8dd#	.	.	.	.
8c#	.	8g#	.	8b	.	4ee#)	.	V7
8c#J	.	8g#J	.	8bJ	.	.	.	.
=8	=8	=8	=8	=8	=8	=8	=8	=8
8AL	.	8c#L	.	8cc#L	.	(4.ff#	.	i6
8A	.	8c#	.	8cc#	.	.	.	.
8A	.	8c#	.	8cc#	.	.	.	.
8E#J	.	8bJ	.	8cc#J	.	8gg#	.	V65
8F#L	.	8aL	.	8cc#L	.	4aa)	.	i
8c#	.	8c#	.	8cc#	.	.	.	.
8A	.	8A	.	8a	.	8r	.	.
8F#J	.	8F#J	.	8f#J	.	8ff#	.	.
=9	=9	=9	=9	=9	=9	=9	=9	=9
8C#L	.	8c#L	.	8c#L	.	(8ee#L	.	V7
8B	.	8e#	.	8g#	.	8dddJ)	.	#viio43
8B	.	8e#	.	8g#	.	(2ddd	.	.
8BJ	.	8e#J	.	8g#J	.	.	.	.
8BL	.	8e#L	.	8g#L	.	.	.	.
8B	.	8e#	.	8g#	.	.	.	.
8A	.	8f#	.	8a	.	4ccc#)	.	i6
8AJ	.	8f#J	.	8aJ	.	.	.	.
=10	=10	=10	=10	=10	=10	=10	=10	=10
8r	.	8r	.	8r	.	(8bbL	.	.
8E#L	.	8c#L	.	8g#L	.	8bbbJ)	.	V65
8E#	.	8c#	.	8gg#	.	(2bbb	.	.
8E#J	.	8c#J	.	8gg#J	.	.	.	.
8E#L	.	8c#L	.	8gg#L	.	.	.	.
8E#	.	8c#	.	8gg#	.	.	.	.
8F#	.	8c#	.	8aa	.	4aaa)	.	i
8F#J	.	8c#J	.	8aaJ	.	.	.	.
=11	=11	=11	=11	=11	=11	=11	=11	=11
!LO:TX:b:t=cresc.	!	!LO:TX:b:t=cresc.	!	!LO:TX:b:t=cresc.	!	!LO:TX:b:t=cresc.	!	!
8BBL	.	8dL	.	(4aa	.	(4aaa	.	ii%65(2)
8B	.	8f# 8dd	.	.	.	.	.	.
8B	.	8f# 8dd	.	[4gg#	.	[4ggg#	.	ii%65
8BJ	.	8f#J 8dd	.	.	.	.	.	.
8dL	.	8f#L 8b	.	8gg#L])	.	8ggg#L])	.	ii%43
8d	.	8f# 8b	.	(8gg#	.	(8ggg#	.	.
8B	.	8f# 8dd	.	8bb	.	8bbb	.	ii%65
8BJ	.	8f#J 8dd	.	8gg#J)	.	8ggg#J)	.	.
=12	=12	=12	=12	=12	=12	=12	=12	=12
8B#XL	.	8f#L 8dd#	.	(4gg#	.	(4ggg#	.	V65/V
8B#	.	8f# 8dd#	.	.	.	.	.	.
8d	.	8b#X	.	2a 2ff#	.	2fff#	.	V(64)
8dJ	.	8b#J	.	.	.	.	.	.
8c#L	.	8cc#L	.	.	.	.	.	.
8c#	.	8cc#	.	.	.	.	.	.
8C#	.	8c# 8b	.	4g#) 4ee#	.	4eee#)	.	V7
8C#J	.	8c#J 8b	.	.	.	.	.	.
=13	=13	=13	=13	=13	=13	=13	=13	=13
!	!	!	!LO:DY:a	!	!	!	!	!
4F#'	ff	4c#' 4a	ff ff	4c#' 4a 4ff#	.	4fff#'	ff	i\\
4r	.	4r	.	4r	.	4r	.	.
4C#'	.	4c#' 4cc#	.	4c#' 4g# 4ee#	.	2r	.	V
4r	.	4r	.	4r	.	.	.	.
=14	=14	=14	=14	=14	=14	=14	=14	=14
4F#'	.	4c#' 4cc#	.	4c#' 4a 4ff#	.	2r	.	V
4C#'	.	4c#' 4cc#	.	4c#' 4g# 4ee#	.	.	.	.
4F#'	.	4c#' 4cc#	.	4c#' 4a 4ff#	.	4r	.	i
4r	.	4r	.	4r	.	4cc#' 4aa 4fff#	ff	.
=15	=15	=15	=15	=15	=15	=15	=15	=15
4C#'	.	4c#' 4cc#	.	4c#' 4g# 4ee#	.	1r	.	i
4r	.	4r	.	4r	.	.	.	.
4F#'	.	4c#' 4cc#	.	4c#' 4a 4ff#	.	.	.	.
4r	.	4r	.	4r	.	.	.	.
=16	=16	=16	=16	=16	=16	=16	=16	=16
4C#'	.	4c#' 4cc#	.	4c#' 4g# 4ee#	.	2r	.	i
4F#'	.	4c#' 4cc#	.	4c#' 4a 4ff#	.	.	.	.
4C#'	.	4c#' 4cc#	.	4c#' 4g# 4ee#	.	4r	.	V
4r	.	4r	.	4r	.	4cc#' 4gg# 4eee#	ff	.
=17	=17	=17	=17	=17	=17	=17	=17	=17
(2A	ff	4r	.	4r	.	(8ccc#L	.	i6
.	.	.	.	.	.	8cccc#J)	.	.
.	.	(4c#	ff	(4cc#	ff	2cccc#	.	#viio6
2G#	.	4d#	.	4dd#	.	.	.	.
.	.	4e#)	.	4ee#)	.	[4bbb	.	.
=18	=18	=18	=18	=18	=18	=18	=18	=18
2F#	.	(4f#	.	(4ff#	.	4bbb]	.	i(4)
.	.	4A	.	4a	.	2aaa	.	VII(4)
2E)	.	4B	.	4b	.	.	.	.
.	.	4c#)	.	4cc#)	.	([4gggX	.	viio6/VI
=19	=19	=19	=19	=19	=19	=19	=19	=19
2.D	.	(4d	.	(4dd	.	8gggL]	.	.
.	.	.	.	.	.	8fff#)	.	VI
.	.	4A	.	4a	.	(8fff#	.	.
.	.	.	.	.	.	8eeeJ)	.	.
.	.	4F#	.	4f#	.	(8eeeL	.	.
.	.	.	.	.	.	8ddd)	.	.
4D	.	4f#)	.	4ff#)	.	8ccc#'	.	.It6
.	.	.	.	.	.	8bb#X'J	.	.
=20	=20	=20	=20	=20	=20	=20	=20	=20
8C#L	p	8e#L	p	8ee#L	p	4ccc#	p	V
8c#	.	8e#	.	8g#	.	.	.	.
8c#	.	8e#	.	8g#	.	4r	.	.
8c#J	.	8e#J	.	8g#J	.	.	.	.
8c#L	.	8e#L	.	8g#L	.	8r	.	.
8c#	.	8e#	.	8g#	.	(8cc#L	.	.
8c#	.	8e#	.	8g#	.	8ccc#	.	.
8c#J	.	8e#J	.	8g#J	.	8bbJ)	.	.
=21	=21	=21	=21	=21	=21	=21	=21	=21
8C#L	.	8r	.	8r	.	(8bbL	.	.
8c#	.	8f#L	.	8aL	.	8aa)	.	V(64)
8c#	.	8f#	.	8a	.	8gg#'	.	.
8c#J	.	8f#J	.	8aJ	.	8ff#'J	.	.
8c#L	.	8f#L	.	8aL	.	8ee'L	.	.
8c#	.	8f#	.	8a	.	8dd'	.	.
8c#	.	8f#	.	8a	.	8cc#'	.	.
8c#J	.	8f#J	.	8aJ	.	8b#X'J	.	.
=22	=22	=22	=22	=22	=22	=22	=22	=22
8C#L	.	8r	.	8r	.	(4dd#	.	V(9)
8c#	.	8e#L	.	8g#L	.	.	.	.
8c#	.	8e#	.	8g#	.	4cc#)	.	V
8c#J	.	8e#J	.	8g#J	.	.	.	.
8c#L	.	8e#L	.	8g#L	.	8r	.	.
8c#	.	8e#	.	8g#	.	(8cc#L	.	.
8c#	.	8e#	.	8g#	.	8ccc#	.	.
8c#J	.	8e#J	.	8g#J	.	8bbJ)	.	.
=23	=23	=23	=23	=23	=23	=23	=23	=23
8C#L	.	8r	.	8r	.	(8bbL	.	.
8c#	.	8f#L	.	8aL	.	8aa)	.	V(64)
8c#	.	8f#	.	8a	.	8gg#'	.	.
8c#J	.	8f#J	.	8aJ	.	8ff#'J	.	.
8c#L	.	8f#L	.	8aL	.	8ee'L	.	.
8c#	.	8f#	.	8a	.	8dd'	.	.
8c#	.	8f#	.	8a	.	8cc#'	.	.
8c#J	.	8f#J	.	8aJ	.	8b#X'J	.	.
=24	=24	=24	=24	=24	=24	=24	=24	=24
4C#'	.	8r	.	8r	.	(8dd#L	.	V(9)
.	.	8e#L	.	8c#L 8g#	.	8cc#)	.	V
!	!	!	!LO:DY:a	!	!	!	!	!
4F#'	sf	8f#	sf sf	8c# 8a	.	16r	.	i
.	.	.	.	.	.	16gg#L	sf	.
.	.	8f#	.	8c# 8a	.	16aa	.	.
.	.	.	.	.	.	16b#XJJ	.	.
4C#'	.	8r	.	8r	.	(8dd#L	.	V(9)
.	.	8e#	.	8c# 8g#	.	8cc#)	.	V
!	!	!	!LO:DY:a	!	!	!	!	!
4F#'	sf	8f#	sf sf	8c# 8a	.	16r	.	i
.	.	.	.	.	.	16gg#L	sf	.
.	.	8f#J	.	8c#J 8a	.	16aa	.	.
.	.	.	.	.	.	16b#JJ	.	.
=25	=25	=25	=25	=25	=25	=25	=25	=25
!	!	!	!LO:DY:a	!	!	!	!	!
4C# 4c#	ff	4e#	ff ff	4c# 4g#	.	4cc#	ff	V\\
4C# 4c#	.	4c# 4cc#	.	4c# 4g# 4ee#	.	4c# 4g# 4ee# 4ccc#	.	.
2r	.	2r	.	2r	.	2r	.	.
=26	=26	=26	=26	=26	=26	=26	=26	=26
4A'	fp	[1A	fp	[1a	fp	4.a	fp	V2/IV
4GX'	.	.	.	.	.	.	.	.
.	.	.	.	.	.	8ccc#'	.	.
4F#'	.	.	.	.	.	(8dddL	.	IV6
.	.	.	.	.	.	8aa)	.	.
4C#'	.	.	.	.	.	8r	.	I6
.	.	.	.	.	.	8ggX'J	.	V65/IV
=27	=27	=27	=27	=27	=27	=27	=27	=27
4D'	.	1A_	.	4.a]	.	(8ff#L	.	IV
.	.	.	.	.	.	8aaJ)	.	.
4GX'	.	.	.	.	.	4r	.	V2/IV
.	.	.	.	8cc#'	.	.	.	.
4F#'	.	.	.	(8ddL	.	2r	.	V65/IV
.	.	.	.	8a)	.	.	.	.
4C#'	.	.	.	8r	.	.	.	.
.	.	.	.	8gX'J	.	.	.	.
=28	=28	=28	=28	=28	=28	=28	=28	=28
4D	.	4A]	.	(8f#L	.	4r	.	IV
.	.	.	.	8aJ)	.	.	.	.
(4C#	.	(4e	.	4r	.	8r	.	V65/IV
.	.	.	.	.	.	8ggX'	.	.
4D')	.	4A')	.	2r	.	(8ff#L	.	IV
.	.	.	.	.	.	8aa)	.	.
[4C#	.	[4e	.	.	.	8r	.	V65/IV
.	.	.	.	.	.	8gg'J	.	.
=29	=29	=29	=29	=29	=29	=29	=29	=29
.	.	.	.	.	.	16qqff#/LL	.	.
.	.	.	.	.	.	16qqggX/	.	.
.	.	.	.	.	.	16qqaa/JJ	.	.
2.C#]	.	4e]	.	8r	.	(2gg	.	.
.	.	.	.	(8cc#L	.	.	.	.
.	.	(4A	.	8dd	.	.	.	.
.	.	.	.	8cc#J	.	.	.	.
.	.	4d)	.	4dd)	.	4ff#)	.	IV\\
4r	.	4r	.	4r	.	4r	.	.
=30	=30	=30	=30	=30	=30	=30	=30	=30
!	!LO:DY:a	!	!	!	!	!	!	!
4F#'	f	[1F#	.	[1f#	f	4.f#	f	V7/ii
4e'	.	.	.	.	.	.	.	.
.	.	.	.	.	.	8aa#'	p	.
!	!LO:DY:a	!	!	!	!	!	!	!
4d'	p	.	.	.	.	(8bbL	.	ii6
.	.	.	.	.	.	8ff#)	.	.
4A#'	.	.	.	.	.	8r	.	V65/ii
.	.	.	.	.	.	8eeJ	.	.
=31	=31	=31	=31	=31	=31	=31	=31	=31
4B'	.	1F#_	.	4.f#]	p	(8ddL	.	ii
.	.	.	.	.	.	8ff#J)	.	.
4E'	.	.	.	.	.	4r	.	V2/ii
.	.	.	.	8a#'	.	.	.	.
4D'	.	.	.	(8bL	.	2r	.	V65/ii
.	.	.	.	8f#)	.	.	.	.
4AA#'	.	.	.	8r	.	.	.	.
.	.	.	.	8e'J	.	.	.	.
=32	=32	=32	=32	=32	=32	=32	=32	=32
4BB	.	4F#]	.	(8dL	.	4r	.	ii
.	.	.	.	8f#J)	.	.	.	.
(4AA#	.	2f#	.	4r	.	8r	.	V65/ii
.	.	.	.	.	.	8ee'	.	.
4BB	.	.	.	2r	.	(8ddL	.	ii
.	.	.	.	.	.	8ddd)	.	.
4D)	.	([4f#	.	.	.	8r	.	ii6
.	.	.	.	.	.	8bb'J	.	.
=33	=33	=33	=33	=33	=33	=33	=33	=33
2.E	.	8f#L]	.	2r	.	(2aa	.	V(94)
!	!	!LO:TX:b:t=cresc.	!	!	!	!	!	!
.	.	8d#	.	.	.	.	.	.
.	.	8e	.	.	.	.	.	.
.	.	8d#J	.	.	.	.	.	.
.	.	8f#L	.	4r	.	4gg#)	.	V\\
.	.	8e	.	.	.	.	.	.
4r	.	8dX	.	4e	p	4r	.	V43
.	.	8BJ)	.	.	.	.	.	.
=34	=34	=34	=34	=34	=34	=34	=34	=34
1r	.	8A'L	p	(8eL	.	1r	.	V2
.	.	8e'	.	8cc#J)	.	.	.	.
.	.	8A'	.	(2cc#	.	.	.	.
.	.	8e'J	.	.	.	.	.	.
.	.	8d'L	.	.	.	.	.	.
.	.	8e'	.	.	.	.	.	.
.	.	8d'	.	4b)	.	.	.	.
.	.	8e'J	.	.	.	.	.	.
=35	=35	=35	=35	=35	=35	=35	=35	=35
.	.	.	.	16qqa#/LL	.	.	.	.
.	.	.	.	16qqb/	.	.	.	.
.	.	.	.	16qqcc#/JJ	.	.	.	.
4r	.	8dL	.	(2b	.	8r	.	.
.	.	8e	.	.	.	8eee'L	p	.
4r	.	8d	.	.	.	8eee'	.	.
.	.	8eJ	.	.	.	8eee'J	.	.
2r	.	8c#L	.	4aX)	.	(8ddd#L	.	I6
.	.	8e	.	.	.	8eee)	.	.
.	.	8A	.	4e	.	8ccc#'	.	I
.	.	8eJ	.	.	.	8aa'J	.	.
=36	=36	=36	=36	=36	=36	=36	=36	=36
1r	.	8G#L	.	(8eL	.	4ee	.	V65
.	.	8e	.	8ddJ)	.	.	.	.
.	.	8g#	.	(2dd	.	4r	.	.
.	.	8eJ	.	.	.	.	.	.
.	.	8aL	.	.	.	2r	.	I
.	.	8e	.	.	.	.	.	.
.	.	8a	.	4cc#)	.	.	.	.
.	.	8d#J	.	.	.	.	.	.
=37	=37	=37	=37	=37	=37	=37	=37	=37
.	.	.	.	16qqb/LL	.	.	.	.
.	.	.	.	16qqcc#/	.	.	.	.
.	.	.	.	16qqdd/JJ	.	.	.	.
1r	.	8aL	.	(2cc#	.	8r	.	.
.	.	8e	.	.	.	8eee'L	.	.
.	.	8a	.	.	.	8eee'	.	.
.	.	8eJ	.	.	.	8eee'J	.	.
.	.	8g#L	.	4b)	.	(8ddd#L	.	V
.	.	8e	.	.	.	8eee	.	.
.	.	8g#	.	4e	.	8fff#	.	V2
.	.	8dJ	.	.	.	8eeeJ)	.	.
=38	=38	=38	=38	=38	=38	=38	=38	=38
1r	.	8c#L	.	(8eL	.	4eee'	.	I6
.	.	8e	.	8eeJ)	.	.	.	.
.	.	8c#	.	2ee	.	(4eee	.	.
.	.	8eJ	.	.	.	.	.	.
.	.	8BL	.	.	.	4fff#	.	V64(+2)
.	.	8e	.	.	.	.	.	.
.	.	8B	.	[4dd	.	4ggg#	.	V43
.	.	8eJ	.	.	.	.	.	.
=39	=39	=39	=39	=39	=39	=39	=39	=39
2r	.	8AL	.	4dd]	.	4aaa	.	I(4)
.	.	8c#	.	.	.	.	.	.
.	.	8A	.	2cc#	.	4ccc#	.	I
.	.	8c#J	.	.	.	.	.	.
4C#	p	8G#L	.	.	.	4ddd#	.	V(+2)/vi
.	.	8c#	.	.	.	.	.	.
4r	.	8G#	.	([4b	.	4eee#)	.	V7/vi
.	.	8c#J	.	.	.	.	.	.
=40	=40	=40	=40	=40	=40	=40	=40	=40
4F#	.	8F#L	.	8bL]	.	4fff#'	.	vi
.	.	8c#	.	8a	.	.	.	.
4r	.	8F#	.	8g#	.	(4aa	.	.
.	.	8AJ	.	8f#J)	.	.	.	.
4BB	.	8F#L	.	(8eL	.	4ccc#	.	V9
.	.	8A	.	8d#	.	.	.	.
4r	.	8F#	.	8a	.	4dd#)	.	V7
.	.	8AJ	.	8d#J)	.	.	.	.
=41	=41	=41	=41	=41	=41	=41	=41	=41
!LO:TX:b:t=cresc.	!	!LO:TX:b:t=cresc.	!	!LO:TX:b:t=cresc.	!	!LO:TX:b:t=cresc.	!	!
(4E	.	(8G#L	.	(2.e	.	(8ff#L	.	V
.	.	8e	.	.	.	8ee	.	.
4D	.	8d#	.	.	.	8dd#	.	V2
.	.	8eJ	.	.	.	8eeJ	.	.
4BB	.	8d#L	.	.	.	8dd#L	.	V64
.	.	8e	.	.	.	8ee	.	.
4GG#)	.	8f#	.	4d)	.	8ff#	.	V65
.	.	8eJ)	.	.	.	8eeJ)	.	.
=42	=42	=42	=42	=42	=42	=42	=42	=42
!	!	!	!LO:DY:a	!	!	!	!	!
8AA'L	p	(8eL	p p	(8c#L	.	(8eeL	p	I
8E'	.	8cc#J)	.	8eJ)	.	8ccc#J)	.	.
8A'	.	(2cc#	.	(2e	.	(2ccc#	.	V(6)
8E'J	.	.	.	.	.	.	.	.
8G#'L	.	.	.	.	.	.	.	.
8E'	.	.	.	.	.	.	.	.
8G#'	.	4b)	.	4d)	.	4bb)	.	V7
8E'J	.	.	.	.	.	.	.	.
=43	=43	=43	=43	=43	=43	=43	=43	=43
.	.	16qqa#/LL	.	16qqc#/LL	.	16qqaa#/LL	.	I(94)
.	.	16qqb/	.	16qqd/	.	16qqbb/	.	.
.	.	16qqcc#/JJ	.	16qqe/JJ	.	16qqccc#/JJ	.	.
8AL	.	(2b	.	(2d	.	(2bb	.	.
8E	.	.	.	.	.	.	.	.
8A	.	.	.	.	.	.	.	.
8EJ	.	.	.	.	.	.	.	.
8AL	.	4aX)	.	8c#L)	.	4aaX)	.	I
8E	.	.	.	(8e	.	.	.	.
8C#	.	4e	.	8a	.	4ee	.	.
8AAJ	.	.	.	8cc#J)	.	.	.	.
=44	=44	=44	=44	=44	=44	=44	=44	=44
8GG#L	.	(8eL	.	(8ddL	.	(8eeL	.	V65
8E	.	8ddJ)	.	8g#J)	.	8dddJ)	.	.
8G#	.	(2dd	.	(2b	.	(2ddd	.	I(94)
8EJ	.	.	.	.	.	.	.	.
8AL	.	.	.	.	.	.	.	.
8G#	.	.	.	.	.	.	.	.
8A	.	4cc#)	.	4a)	.	4ccc#)	.	I
8D#J	.	.	.	.	.	.	.	.
=45	=45	=45	=45	=45	=45	=45	=45	=45
.	.	16qqb/LL	.	16qqg#/LL	.	16qqbb/LL	.	V(64)
.	.	16qqcc#/	.	16qqa/	.	16qqccc#/	.	.
.	.	16qqdd/JJ	.	16qqb/JJ	.	16qqddd/JJ	.	.
8EL	.	(2cc#	.	(2a	.	(2ccc#	.	.
8e	.	.	.	.	.	.	.	.
8e	.	.	.	.	.	.	.	.
8eJ	.	.	.	.	.	.	.	.
(8d#L	.	4b)	.	4g#)	.	4bb)	.	V
8e	.	.	.	.	.	.	.	.
8dX	.	8r	.	4r	.	4r	.	V2
8eJ)	.	8f#	.	.	.	.	.	.
=46	=46	=46	=46	=46	=46	=46	=46	=46
!LO:TX:b:t=cresc.	!	!LO:TX:b:t=cresc.	!	!	!	!LO:TX:b:t=cresc.	!	!
(2c#	.	(8aL	.	4r	.	(8eeL	.	I6
.	.	8e	.	.	.	8eeeJ)	.	.
.	.	8cc#	.	8r	.	2eee	.	V64
.	.	8aJ)	.	8aa	.	.	.	.
!	!	!	!	!LO:TX:b:t=cresc.	!	!	!	!
2B	.	(8aL	.	(8aaL	.	.	.	.
.	.	8g#	.	8gg#	.	.	.	.
.	.	8f#	.	8ff#	.	[4ddd	.	V43
.	.	8g#J)	.	8gg#J)	.	.	.	.
=47	=47	=47	=47	=47	=47	=47	=47	=47
2A	.	(8aL	.	4aa	.	4ddd]	.	I(4)
.	.	8c#	.	.	.	.	.	.
.	.	8a	.	8r	.	2ccc#	.	#viio6(6)/vi
.	.	8f#J)	.	8ff#	.	.	.	.
2G#)	.	(8f#L	.	(8ff#L	.	.	.	.
.	.	8e#	.	8ee#	.	.	.	.
.	.	8d#	.	8dd#	.	([4bb	.	#viio6/vi
.	.	8e#J)	.	8ee#J)	.	.	.	.
=48	=48	=48	=48	=48	=48	=48	=48	=48
2F#	.	8f#L	.	8ff#L	.	8bbL]	.	vi
.	.	8c#	.	8a	.	8aa)	.	.
.	.	8c#	.	8a	.	(8aa	.	.
.	.	8c#J	.	8aJ	.	8gg#J)	.	.
2BB	.	8BL	.	8aL	.	(8gg#L	.	V7/V
.	.	8B	.	8a	.	8ff#)	.	.
.	.	8f#	.	8a	.	8ee'	.	.
.	.	8f#J	.	8aJ	.	8dd#'J	.	.
=49	=49	=49	=49	=49	=49	=49	=49	=49
8EL	.	8e	.	8g#	.	(4ff#	.	V(9)
8e	p	8g#L	p	8bL	p	.	.	.
8e	.	8g#	.	8b	.	[4ee	p	V[V6
8eJ	.	8g#J	.	8bJ	.	.	.	.
4e	.	4g#	.	4b	.	8eeL])	.	.
.	.	.	.	.	.	(16dd#L	.	.
.	.	.	.	.	.	16eeJJ)	.	.
4r	.	4r	.	4r	.	(16dd#LL	.	.
.	.	.	.	.	.	16ee	.	.
.	.	.	.	.	.	16aa	.	.
.	.	.	.	.	.	16gg#JJ)	.	.
=50	=50	=50	=50	=50	=50	=50	=50	=50
8r	.	8r	.	8r	.	(4ee#	.	.
8eL	.	8aL	.	8dd#L	.	.	.	.
8e	.	8a	.	8dd#	.	[4ff#	.	#viio64/V
8eJ	.	8aJ	.	8dd#J	.	.	.	.
4e	.	4a	.	4dd#	.	8ff#L])	.	.
.	.	.	.	.	.	(16ee#L	.	.
.	.	.	.	.	.	16ff#JJ)	.	.
4r	.	4r	.	4r	.	(16ee#LL	.	.
.	.	.	.	.	.	16ff#	.	.
.	.	.	.	.	.	16bb	.	.
.	.	.	.	.	.	16aaJJ)	.	.
=51	=51	=51	=51	=51	=51	=51	=51	=51
!	!	!	!	!	!	!LO:TX:b:t=cresc.	!	!
4r	.	4r	.	4r	.	(16ff##XLL	.	.
.	.	.	.	.	.	16gg#)	.	viio6
.	.	.	.	.	.	(16ff##	.	.
.	.	.	.	.	.	16gg#JJ)	.	.
!LO:TX:a:t=cresc.	!	!LO:TX:b:t=cresc.	!	!LO:TX:b:t=cresc.	!	!	!	!
4e	.	4b	.	4ddX	.	(16ff##LL	.	.
.	.	.	.	.	.	16gg#	.	.
.	.	.	.	.	.	16ccc#	.	.
.	.	.	.	.	.	16bbJJ)	.	.
4r	.	4r	.	4r	.	(16gg#LL	.	.
.	.	.	.	.	.	16aa)	.	.
.	.	.	.	.	.	(16gg#	.	.
.	.	.	.	.	.	16aaJJ)	.	.
4e	.	4a	.	4cc#	.	(16gg#LL	.	I
.	.	.	.	.	.	16aa	.	.
.	.	.	.	.	.	16ddd	.	.
.	.	.	.	.	.	16ccc#JJ)	.	.
=52	=52	=52	=52	=52	=52	=52	=52	=52
4r	.	4r	.	4r	.	(16aa#LL	.	.
.	.	.	.	.	.	16bb	.	.
.	.	.	.	.	.	16ccc#	.	.
.	.	.	.	.	.	16bbJJ	.	.
!	!	!	!LO:DY:a	!	!	!	!	!
4E'	f	4e' 4dd	f f	4e' 4b 4gg#	.	16dddLL	f	V7]
.	.	.	.	.	.	16ccc#	p	.
.	.	.	.	.	.	16eee	.	.
.	.	.	.	.	.	16dddJJ	.	.
2r	.	2r	.	2r	.	16ccc#LL	.	.
.	.	.	.	.	.	16bb	.	.
.	.	.	.	.	.	16aaX	.	.
.	.	.	.	.	.	16gg#JJ	.	.
.	.	.	.	.	.	16ff#LL	.	.
.	.	.	.	.	.	16ee	.	.
.	.	.	.	.	.	16dd#	.	.
.	.	.	.	.	.	16ddXJJ)	.	.
=53	=53	=53	=53	=53	=53	=53	=53	=53
4A'	p	4e'	p	4a'	p	4cc#'	.	I
4.c#	sf	4.e	sf	4.a	sf	4.ee	sf	I6
8c#'L	.	8e'L	.	8a'L	.	8ee'L	.	.
8B'	.	8e'	.	8dd'	.	8gg#'	.	V43
8A'J	.	8e'J	.	8cc#'J	.	8aa'J	.	I
=54	=54	=54	=54	=54	=54	=54	=54	=54
(4G#	.	(4e	.	(4b	.	(8bbL	.	V6
.	.	.	.	.	.	8gg#J)	.	.
4B	.	4g#	.	4dd	.	2ee	.	V7
4E	.	4b	.	4g#	.	.	.	.
.	.	.	.	.	.	16qqee/	.	V65
4G#)	.	4e)	.	4b)	.	(8ddL	.	.
.	.	.	.	.	.	16cc#L	.	.
.	.	.	.	.	.	16ddJJ)	.	.
=55	=55	=55	=55	=55	=55	=55	=55	=55
4A'	.	4e'	.	4e'	.	4cc#'	.	I
4.c#	sf	4.e	sf	4.a	sf	4.ee	sf	I6
8c#'L	.	8e'L	.	8a'L	.	8ee'L	.	.
8B'	.	8e'	.	8dd'	.	8gg#'	.	V43
8A'J	.	8e'J	.	8cc#'J	.	8aa'J	.	I
=56	=56	=56	=56	=56	=56	=56	=56	=56
(4G#	.	(4e	.	(4b	.	(8bbL	.	V6
.	.	.	.	.	.	8gg#J)	.	.
4B	.	4g#	.	4dd	.	2ee	.	V7
4E	.	4b	.	4g#	.	.	.	.
.	.	.	.	.	.	16qqee/	.	V65
4G#)	.	4e)	.	4b)	.	(8ddL	.	.
.	.	.	.	.	.	16cc#L	.	.
.	.	.	.	.	.	16ddJJ)	.	.
=57	=57	=57	=57	=57	=57	=57	=57	=57
4A'	.	4e'	.	4e'	.	4cc#'	.	I
4.c#	sf	4.e	sf	4.a	sf	4.ee	sf	I6
8c#'L	.	8e'L	.	8a'L	.	8ee'L	.	.
8B'	.	8d'	.	8b'	.	8gg#'	.	V43
8A'J	.	8c#'J	.	8cc#'J	.	8aa'J	.	I
=58	=58	=58	=58	=58	=58	=58	=58	=58
(8AL	.	(8c#L	.	(8cc#	.	(8aaL	.	.
8dJ)	.	8f#J)	.	4a	.	8ff#J)	.	IV
4.d	sf	4.f#	sf	.	.	4.ff#	sf	ii6
.	.	.	.	8a#)	.	.	.	.
.	.	.	.	8bL	.	.	.	.
8d'L	.	8f#'L	.	8b'	.	8ff#'L	.	.
8c#'	.	8e'	.	8cc#'	.	8aa#'	.	#viio6/ii
8B'J	.	8d'J	.	8dd'J	.	8bb'J	.	ii
=59	=59	=59	=59	=59	=59	=59	=59	=59
!	!	!LO:TX:b:t=cresc.	!	!LO:TX:b:t=cresc.	!	!LO:TX:b:t=cresc.	!	!
(2e	.	(4e	.	(4dd	.	(4bb	.	V7
.	.	4ee	.	4cc#	.	2aa	.	#viio7/V
4d#	.	4ff#	.	4ccX	.	.	.	.
4dX)	.	4ee)	.	4b)	.	4gg#)	.	V2
=60	=60	=60	=60	=60	=60	=60	=60	=60
8C#'	p	8ee'	p	8a'	p	8aa'	p	I6
4c#	sf	4e	sf	4a	sf	4eee	sf	.
[8c#	.	[8e	.	[8a	.	[8eee	.	.
8c#L]	.	8eL]	.	8aL]	.	8eeeL]	.	.
8c#'	.	8e'	.	8a'	.	8eee'	.	.
8B'	.	8e'	.	8g#'	.	8ddd'	.	V43
8A'J	.	8e'J	.	8a'J	.	8ccc#'J	.	I
=61	=61	=61	=61	=61	=61	=61	=61	=61
8D'	.	8f#'	.	8a'	.	8bb'	.	ii65
4d	sf	4f#	sf	4b	sf	4fff#	sf	ii6
[8d	.	[8f#	.	[8b	.	[8fff#	.	.
8dL]	.	8f#L]	.	8bL]	.	8fff#L]	.	.
8d'	.	8f#'	.	8b'	.	8fff#'	.	.
8c#'	.	8f#'	.	8a#'	.	8eee'	.	V43/ii
8B'J	.	8f#'J	.	8b'J	.	8ddd'J	.	ii
=62	=62	=62	=62	=62	=62	=62	=62	=62
8E'	.	8gX'	.	8a#'	.	8ccc#'	.	#viio43/ii
4e	sf	4a#	sf	4ggX	sf	4gggX	sf	.
[8e	.	[8a#	.	[8gg	.	[8ggg	.	.
8eL]	.	8a#L]	.	8ggL]	.	8gggL]	.	.
8e'	.	8a#'	.	8gg'	.	8ggg'	.	.
8d'	.	8b'	.	8ff#'	.	8fff#'	.	ii6
8c#'J	.	8b'J	.	8ee#'J	.	8eee#'J	.	V7/vi
=63	=63	=63	=63	=63	=63	=63	=63	=63
8d'L	.	8b'L	.	8ff#'L	.	8fff#'L	.	ii6
8d'	.	8b'	.	8ff#'	.	8fff#'	.	.
8d'	.	8b'	.	8ff#'	.	8fff#'	.	.
8c#'J	sf	8b'J	sf	8ee#'J	sf	8eee#'J	sf	V7/vi
8d'L	.	8b'L	.	8ff#'L	.	8fff#'L	.	ii6
8d'	.	8b'	.	8ff#'	.	8fff#'	.	.
8d'	.	8b'	.	8ff#'	.	8fff#'	.	.
8c#'J	sf	8b'J	sf	8ee#'J	sf	8eee#'J	sf	V7/vi
=64	=64	=64	=64	=64	=64	=64	=64	=64
!LO:TX:b:t=cresc.	!	!LO:TX:b:t=cresc.	!	!LO:TX:b:t=cresc.	!	!LO:TX:b:t=cresc.	!	!
(2d	.	(4b	.	(4ff#	.	4fff#'	.	ii6
.	.	4a	.	4aa	.	2fff#	.	IV
2cX	.	4f#	.	4ff#	.	.	.	.
.	.	4e)	.	4ee)	.	[4aaa	.	i6
=65	=65	=65	=65	=65	=65	=65	=65	=65
2B	.	(2d#	.	(2dd#	.	4aaa]	.	V7/V
.	.	.	.	.	.	2ccccX	.	#viio43/V
2A)	.	2f#)	.	2ff#)	.	.	.	.
.	.	.	.	.	.	(4d#	.	.
=66	=66	=66	=66	=66	=66	=66	=66	=66
4G#	.	4B	.	4b	.	16eLL)	.	V6
.	.	.	.	.	.	(16d#	.	.
.	.	.	.	.	.	16f#	.	.
.	.	.	.	.	.	16eJJ	.	.
4r	.	4r	.	4r	.	16g#LL	.	.
.	.	.	.	.	.	16f#	.	.
.	.	.	.	.	.	16a	.	.
.	.	.	.	.	.	16g#JJ	.	.
2r	.	2r	.	2r	.	16bLL	.	.
.	.	.	.	.	.	16a#	.	.
.	.	.	.	.	.	16cc#	.	.
.	.	.	.	.	.	16bJJ	.	.
.	.	.	.	.	.	16dd#LL	.	.
.	.	.	.	.	.	16cc#	.	.
.	.	.	.	.	.	16ee	.	.
.	.	.	.	.	.	16dd#JJ	.	.
=67	=67	=67	=67	=67	=67	=67	=67	=67
(4d	.	(4dd	.	2r	.	16ff#LL	.	V2
.	.	.	.	.	.	16ee	.	.
.	.	.	.	.	.	16gg#	.	.
.	.	.	.	.	.	16ff#JJ	.	.
4B	.	4b	.	.	.	16aaLL	.	V43
.	.	.	.	.	.	16gg#	.	.
.	.	.	.	.	.	16bb	.	.
.	.	.	.	.	.	16aa#JJ	.	.
4G#	.	4g#	.	4r	.	16ccc#LL	.	V65
.	.	.	.	.	.	16bb	.	.
.	.	.	.	.	.	16ddd	.	.
.	.	.	.	.	.	16ccc#JJ	.	.
4D)	.	4d)	.	(4gg#	.	16eeeLL	.	V2
.	.	.	.	.	.	16ddd#	.	.
.	.	.	.	.	.	16fff#	.	.
.	.	.	.	.	.	16eeeJJ)	.	.
=68	=68	=68	=68	=68	=68	=68	=68	=68
4C#	.	4c#	.	4aa)	.	8eee	.	I6
.	.	.	.	.	.	4aaa	.	.
4r	.	4r	.	4r	.	.	.	.
.	.	.	.	.	.	4cccc#	.	.
2r	.	8r	.	8r	.	.	.	.
.	.	8cc#'L	.	8aa'L	.	8eeeeL	.	.
.	.	8a'	.	8ccc#'	.	8eeee	.	.
.	.	8cc#'J	.	8aa'J	.	8eeeeJ	.	.
=69	=69	=69	=69	=69	=69	=69	=69	=69
!	!	!	!	!	!LO:DY:a	!	!	!
8eL	f	8g#'L	f	8ddd'L	f f	2e	.	V7
8E	.	8G#'	.	8bb'	.	.	.	.
8E	.	8B'	.	8gg#'	.	.	.	.
8EJ	.	8d'J	.	8ee'J	.	.	.	.
8EL	.	8g#'L	.	8dd'L	.	2eeT	.	.
8E	.	8b'	.	8b'	.	.	.	.
8E	.	8dd'	.	8g#'	.	.	.	.
8EJ	.	8d'J	.	8gg#'J	.	.	.	.
.	.	.	.	.	.	16qqdd#/LL	.	.
.	.	.	.	.	.	16qqee/JJ	.	.
=70	=70	=70	=70	=70	=70	=70	=70	=70
4A'	.	4c#'	.	4aa'	.	4a'	.	I\\
4r	.	4r	.	4r	.	4r	.	.
4e'	pp	4e'	pp	4ee'	pp	4ee'	pp	I
4c#'	.	4c#'	.	4cc#'	.	4cc#'	.	.
=71	=71	=71	=71	=71	=71	=71	=71	=71
4A'	.	4A'	.	4a'	.	4a'	.	.
4A#'	.	4A#'	.	4a#'	.	4a#'	.	.
4B'	.	4B'	.	4b'	.	4b'	.	ii
4c#'	.	4c#'	.	4cc#'	.	4cc#'	.	.
=72	=72	=72	=72	=72	=72	=72	=72	=72
4d	.	4d	.	4dd	.	4dd	.	.
4r	.	4r	.	4r	.	4r	.	.
4FX	.	4fX	.	4fX	.	4fX	.	@none
4r	.	4r	.	4r	.	4r	.	.
=73	=73	=73	=73	=73	=73	=73	=73	=73
4E	.	4e	.	4e	.	4e	.	V
4r	.	4r	.	4r	.	4r	.	.
!	!	!	!LO:DY:a	!	!LO:DY:a	!	!	!
4E'	f	4e'	f f	4e' 4dd	f	4e' 4b 4gg#	.	V7
4E'	.	4e'	.	4e' 4dd	.	4e' 4b 4gg#	.	.
=74	=74	=74	=74	=74	=74	=74	=74	=74
4A'	.	4a'	.	4e' 4cc#	.	4c#' 4a 4aa	.	I\\
4r	.	4r	.	4r	.	4r	.	.
4e'	pp	4e'	pp pp	4ee'	pp	4ee'	pp	I
4c#'	.	4c#'	.	4cc#'	.	4cc#'	.	.
=75	=75	=75	=75	=75	=75	=75	=75	=75
4A'	.	4A'	.	4a'	.	4a'	.	.
4A#'	.	4A#'	.	4a#'	.	4a#'	.	.
4B'	.	4B'	.	4b'	.	4b'	.	ii
4c#'	.	4c#'	.	4cc#'	.	4cc#'	.	.
=76	=76	=76	=76	=76	=76	=76	=76	=76
4d	.	4d	.	4dd	.	4dd	.	.
4r	.	4r	.	4r	.	4r	.	.
4F#	.	4f#	.	4f#	.	4f#	.	i.i
4r	.	4r	.	4r	.	4r	.	.
=77	=77	=77	=77	=77	=77	=77	=77	=77
4E#	.	4e#	.	4e#	.	4e#	.	@none
4r	.	4r	.	4r	.	4r	.	.
!	!	!	!	!	!LO:DY:a	!	!	!
4C#'	f	4c#'	f	4c#' 4b	f f	4c#' 4g# 4ee#	.	V7
4C#'	.	4c#'	.	4c#' 4b	.	4c#' 4g# 4ee#	.	.
=78:|!|:	=78:|!|:	=78:|!|:	=78:|!|:	=78:|!|:	=78:|!|:	=78:|!|:	=78:|!|:	=78:|!|:
4F##X	.	4f##X	.	4f##X	.	4f##X	.	v.V6/V
4r	.	4r	.	4r	.	4r	.	.
4G#'	f	4g#'	f	4g#' 4ff#	f	4g#' 4dd# 4bb#X	f	V7
4G#'	.	4g#'	.	4g#' 4ff#	.	4g#' 4dd# 4bb#	.	.
=79	=79	=79	=79	=79	=79	=79	=79	=79
8C#L	f	8cc#L	f	8g#L 8ee	f	[2ccc# 4c# 4g# 4ee	f	i[i
8c#	p	8cc#	p	8g# 8ee	p	.	.	.
8c#	.	8cc#	.	8g# 8ee	.	.	.	.
8c#J	.	8cc#J	.	8g#J 8ee	.	.	.	.
8c#L	.	8cc#L	.	8g#L 8ee	.	8ccc#L]	p	.
.	.	.	.	.	.	16qqddd#/LL	.	.
.	.	.	.	.	.	16qqccc#/	.	.
.	.	.	.	.	.	16qqbb#X/JJ	.	.
8c#	.	8cc#	.	8g# 8ee	.	8ccc#	.	.
8c#	.	8b#X	.	8a 8ff#	.	8eee	.	#viio2
8c#J	.	8b#J	.	8aJ 8ff#	.	8ddd#J	.	.
=80	=80	=80	=80	=80	=80	=80	=80	=80
8c#L	.	8b#XL	.	8aL 8ff#	.	(2ddd#	.	.
8c#	.	8b#	.	8a 8ff#	.	.	.	.
8c#	.	8b#	.	8a 8ff#	.	.	.	.
8c#J	.	8b#J	.	8aJ 8ff#	.	.	.	.
8c#L	.	8cc#L	.	8g#L 8ee	.	4ccc#)	.	i64]
8c#	.	8cc#	.	8g# 8ee	.	.	.	.
8B	.	8cc#	.	8g# 8ee#	.	4ccc#	.	i.V2
8BJ	.	8cc#J	.	8g#J 8ee#	.	.	.	.
=81	=81	=81	=81	=81	=81	=81	=81	=81
8AL	.	8cc#L	.	8aL 8ff#	.	[2fff#	.	i
8A	.	8cc#	.	8a 8ff#	.	.	.	.
8F#	.	8cc#	.	8a 8ff#	.	.	.	.
8F#J	.	8cc#J	.	8aJ 8ff#	.	.	.	.
8c#L	.	8cc#L	.	8aL 8ff#	.	8fff#L]	.	V(64)
.	.	.	.	.	.	16qqggg#/LL	.	.
.	.	.	.	.	.	16qqfff#/	.	.
.	.	.	.	.	.	16qqeee#/JJ	.	.
8c#	.	8cc#	.	8a 8ff#	.	(8fff#	.	.
8C#	.	8b	.	8ee#	.	8aaa	.	V7
8C#J	.	8bJ	.	8ee#J	.	8ggg#J)	.	.
=82	=82	=82	=82	=82	=82	=82	=82	=82
8DL	.	8bL	.	8ee#L	.	(2ggg#	.	VI(64#2)
8d	.	8b	.	8ee#	.	.	.	.
8d	.	8b	.	8ee#	.	.	.	.
8dJ	.	8bJ	.	8ee#J	.	.	.	.
8dL	.	8aL	.	8ff#L	.	4fff#)	.	VI
8d	.	8f#	.	8a	.	.	.	.
8c#	.	8f#	.	8a	.	4ff#	.	i64
8c#J	.	8f#J	.	8aJ	.	.	.	.
=83	=83	=83	=83	=83	=83	=83	=83	=83
8B#XL	.	8f#L	.	8aL	.	(8ff#L	.	#viio7/V
8B#	.	8f#	.	8ff#	.	8ddd#J)	.	.
8B#	.	8f#	.	8ff#	.	(2ddd#	.	.
8B#J	.	8f#J	.	8ff#J	.	.	.	.
8B#L	.	8f#L	.	8ff#L	.	.	.	.
8B#	.	8f#	.	8ff#	.	.	.	.
8A	.	8f#	.	8ff#	.	4ccc#)	.	i6
8AJ	.	8f#J	.	8ff#J	.	.	.	.
=84	=84	=84	=84	=84	=84	=84	=84	=84
8G#L	.	8f#L	.	8ff#L	.	(8bb#XL	.	v.V7
8g#	.	8b#X	.	8dd#	.	8fff#J)	.	.
8g#	.	8b#	.	8dd#	.	(2fff#	.	.
8g#J	.	8b#J	.	8dd#J	.	.	.	.
8g#L	.	8b#L	.	8dd#L	.	.	.	.
8g#	.	8b#	.	8dd#	.	.	.	.
8a	.	8cc#	.	8cc#	.	4eee)	.	VI
8aJ	.	8cc#J	.	8cc#J	.	.	.	.
=85	=85	=85	=85	=85	=85	=85	=85	=85
8f##XL	.	8cc#L	.	8aa#L	.	(8eeeL	.	V65(2)/V
8f##	.	8cc#	.	8aa#	.	8ddd#J)	.	V65/V
8a	.	8ee	.	8ff##X	.	(2ccc#	.	V(64)
8aJ	.	8eeJ	.	8ff##J	.	.	.	.
8g#L	.	8eeL	.	8gg#L	.	.	.	.
8g#	.	8ee	.	8gg#	.	.	.	.
8G#	.	8dd#	.	8ff#	.	4bb#X)	.	V7
8G#J	.	8dd#J	.	8ff#J	.	.	.	.
=86	=86	=86	=86	=86	=86	=86	=86	=86
8c#'L	.	8g#L	.	8ee'L	.	(4.ccc#	.	i6
8e'	.	8g#	.	8gg#'	.	.	.	.
(8e	.	8g#	.	(8gg#	.	.	.	.
8B#XJ)	.	8g#J	.	8ff#J)	.	8ddd#)	.	V65
8c#'L	.	8g#L	.	8ee'L	.	4eee'	.	i
8g#'	.	8g#	.	8gg#'	.	.	.	.
8e'	.	8e	.	8ee'	.	8r	.	.
8c#'J	.	8c#J	.	8cc#'J	.	8ccc#'	.	.
=87	=87	=87	=87	=87	=87	=87	=87	=87
!LO:TX:b:t=cresc.	!	!LO:TX:b:t=cresc.	!	!LO:TX:b:t=cresc.	!	!LO:TX:b:t=cresc.	!	!
8G#L	.	8G#L	.	8g#L	.	(8bb#XL	.	V7
8f#	.	8b#X	.	8dd#	.	8aaaJ)	.	#viio43
8f#	.	8b#	.	8dd#	.	(2aaa	.	.
8f#J	.	8b#J	.	8dd#J	.	.	.	.
8f#L	.	8b#L	.	8dd#L	.	.	.	.
8f#	.	8b#	.	8dd#	.	.	.	.
8e	.	8cc#	.	8ee	.	4ggg#)	.	i6
8eJ	.	8cc#J	.	8eeJ	.	.	.	.
=88	=88	=88	=88	=88	=88	=88	=88	=88
8r	.	8r	.	8r	.	(4fff#	.	#viio6
8d#L	.	8g#L	.	8ff#L	.	.	.	.
8d#	.	8g#	.	8ff#	.	(2bbb#X)	.	.
8d#J	.	8g#J	.	8ff#J	.	.	.	.
8d#L	.	8g#L	.	8ff#L	.	.	.	.
8d#	.	8g#	.	8ff#	.	.	.	.
8c#	.	8g#	.	8ee	.	4cccc#)	.	i
8c#J	.	8g#J	.	8eeJ	.	.	.	.
=89	=89	=89	=89	=89	=89	=89	=89	=89
8r	.	8r	.	8r	.	2.d#	.	ii%43
8F#L	.	8c#L	.	8aaL	.	.	.	.
8F#	.	8c#	.	8aa	.	.	.	.
8F#J	.	8c#J	.	8aaJ	.	.	.	.
8AL	.	8c#L	.	8ff#L	.	.	.	.
8A	.	8c#	.	8ff#	.	.	.	.
8F#	.	8c#	.	8dd#	.	4aa	.	ii%65
8F#J	.	8c#J	.	8dd#J	.	.	.	.
=90	=90	=90	=90	=90	=90	=90	=90	=90
8GG#L	.	8c#L	.	8eeL	.	(4aa	.	V(964)
8G#	.	8c#	.	8e	.	.	.	.
8G#	.	8c#	.	8e	.	2gg#	.	V7
8G#J	.	8c#J	.	8eJ	.	.	.	.
8GG#L	.	8d#L	.	8f#L	.	.	.	.
8G#	.	8d#	.	8f#	.	.	.	.
8G#	.	8d#	.	8f#	.	4b#X)	.	.
8G#J	.	8d#J	.	8f#J	.	.	.	.
=91	=91	=91	=91	=91	=91	=91	=91	=91
[2C#	sf	8c#L	.	4e	.	4cc#	.	i\\
.	.	8G# 8g#	.	.	.	.	.	.
.	.	8G# 8g#	.	4r	.	4r	.	i
.	.	8G#J 8g#	.	.	.	.	.	.
8C#L]	.	8G#L 8g#	.	2r	.	2r	.	.
(8C#	.	8G# 8g#	.	.	.	.	.	.
8E	.	8G# 8g#	.	.	.	.	.	.
8D#J)	.	8G#J 8g#	.	.	.	.	.	.
=92	=92	=92	=92	=92	=92	=92	=92	=92
(2D#	sf	8G#L 8g#	.	8r	.	2.ggg#	sf	i
.	.	8G# 8g#	.	(8c#L	.	.	.	.
.	.	8G# 8g#	.	8e	.	.	.	.
.	.	8G#J 8g#	.	8g#J	.	.	.	.
4C#)	.	8G#L 8g#	.	8cc#L	.	.	.	.
.	.	8G# 8g#	.	8ee	.	.	.	.
4r	.	8G# 8g#	.	8gg#	.	(8.aaaL	.	.
.	.	8G#J 8g#	.	8cc#J)	.	.	.	.
.	.	.	.	.	.	16ggg#Jk)	.	.
=93	=93	=93	=93	=93	=93	=93	=93	=93
[2D#	.	8G#L 8g#	.	4b#X	.	4ggg#	.	V64
.	.	8G# 8g#	.	.	.	.	.	.
.	.	8G# 8g#	.	4r	.	4r	.	.
.	.	8G#J 8g#	.	.	.	.	.	.
8D#L]	.	8G#L 8g#	.	2r	.	2r	.	.
(8D#	.	8G# 8g#	.	.	.	.	.	.
8F#	.	8G# 8g#	.	.	.	.	.	.
8EJ)	.	8G#J 8g#	.	.	.	.	.	.
=94	=94	=94	=94	=94	=94	=94	=94	=94
(2E	sf	8G#L 8g#	.	8r	.	2.ggg#	sf	V64
.	.	8G# 8g#	.	(8b#XL	.	.	.	.
.	.	8G# 8g#	.	8dd#	.	.	.	.
.	.	8G#J 8g#	.	8cc#J	.	.	.	.
4D#)	.	8G#L 8g#	.	8b#L	.	.	.	.
.	.	8G# 8g#	.	8dd#	.	.	.	.
4r	.	8G# 8g#	.	8gg#	.	(8.aaaL	.	.
.	.	8G#J 8g#	.	8b#J)	.	.	.	.
.	.	.	.	.	.	16ggg#Jk)	.	.
=95	=95	=95	=95	=95	=95	=95	=95	=95
4E	.	8G#L 8g#	.	4cc#	.	4ggg#	.	i6
.	.	(8c#	.	.	.	.	.	.
4r	.	8e	.	4r	.	4r	.	.
.	.	8d#J)	.	.	.	.	.	.
8r	.	(4d#	.	2r	.	2r	.	.
(8EL	.	.	.	.	.	.	.	.
8G#	.	[4c#	.	.	.	.	.	.
8F#J)	.	.	.	.	.	.	.	.
=96	=96	=96	=96	=96	=96	=96	=96	=96
(4F#	.	8c#])	.	1r	.	1r	.	V6
.	.	(8c#L	.	.	.	.	.	.
4.E#)	.	8b	.	.	.	.	.	.
.	.	8aJ)	.	.	.	.	.	.
.	.	(4a	.	.	.	.	.	.
(8E#L	.	.	.	.	.	.	.	.
8d	.	[4g#)	.	.	.	.	.	.
8c#J)	.	.	.	.	.	.	.	.
=97	=97	=97	=97	=97	=97	=97	=97	=97
!LO:TX:b:t=cresc.	!	!	!	!	!	!	!	!
(4c#	.	8g#L]	.	2r	.	8r	.	V
!	!	!LO:TX:b:t=cresc.	!	!	!	!LO:TX:b:t=cresc.	!	!
.	.	(8g#	.	.	.	(8ee#L	.	.
4B)	.	8e#	.	.	.	8gg#	.	#viio64
.	.	8f#J	.	.	.	8ff#J	.	.
2r	.	8g#'L)	.	8r	.	8ee#'L)	.	.
!	!	!	!	!LO:TX:b:t=cresc.	!	!	!	!
.	.	(8b	.	(8ee#L	.	(8gg#	.	.
.	.	8g#	.	8gg#	.	8bb	.	.
.	.	8aJ	.	8ff#J	.	8aaJ	.	.
=98	=98	=98	=98	=98	=98	=98	=98	=98
[2C#	.	8b'L)	.	8ee#'L)	.	8gg#'L)	.	V7
.	.	(8dd	.	(8bb	.	(8eee#	.	.
.	.	8b	.	8gg#	.	8ggg#	.	.
.	.	8cc#J	.	8aaJ	.	8fff#J	.	.
8C#L]	.	8dd')	.	8bb'L)	.	8eee#')	.	.
(8D	.	4g#	.	8b	.	4eee#	.	.
8C#	.	.	.	8cc#	.	.	.	.
8BBJ)	.	8g#	.	8ddJ	.	8eee#	.	.
=99	=99	=99	=99	=99	=99	=99	=99	=99
4AA	.	8aL	.	4cc#	.	[2fff#	.	i6
.	.	8c# 8a	.	.	.	.	.	.
4r	.	8c# 8a	.	4r	.	.	.	.
.	.	8c#J 8a	.	.	.	.	.	.
2r	.	8c#L 8a	.	2r	.	8fff#L]	.	.
.	.	.	.	.	.	16qqggg#/LL	.	.
.	.	.	.	.	.	16qqfff#/	.	.
.	.	.	.	.	.	16qqeee#/JJ	.	.
.	.	8c# 8a	.	.	.	(8fff#	.	.
.	.	8c# 8a	.	.	.	8aaa	.	.
.	.	8c#J 8a	.	.	.	8ggg#J)	.	.
=100	=100	=100	=100	=100	=100	=100	=100	=100
2.C#	sf	8c#L 8a	.	8r	.	(2ggg#	sf	V(64)
.	.	8c# 8a	.	(8f#L	.	.	.	.
.	.	8c# 8a	.	8a	.	.	.	.
.	.	8c#J 8a	.	8cc#J	.	.	.	.
.	.	8c#L 8a	.	8ff#L	.	4fff#)	.	.
.	.	8c# 8a	.	8aa	.	.	.	.
(8.DL	.	8c# 8a	.	8ccc#	.	4r	.	.
.	.	8c#J 8a	.	8ff#J)	.	.	.	.
16C#Jk)	.	.	.	.	.	.	.	.
=101	=101	=101	=101	=101	=101	=101	=101	=101
4C#'	.	8c#L 8b	.	4ee#	.	[2ggg#	.	V7
.	.	8c# 8b	.	.	.	.	.	.
4r	.	8c# 8b	.	4r	.	.	.	.
.	.	8c#J 8b	.	.	.	.	.	.
2r	.	8c#L 8b	.	2r	.	8ggg#L]	.	.
.	.	.	.	.	.	16qqaaa/LL	.	.
.	.	.	.	.	.	16qqggg#/	.	.
.	.	.	.	.	.	16qqfff#/JJ	.	.
.	.	8c# 8b	.	.	.	(8ggg#	.	.
.	.	8c# 8b	.	.	.	8bbb	.	.
.	.	8c#J 8b	.	.	.	8aaaJ)	.	.
=102	=102	=102	=102	=102	=102	=102	=102	=102
2.C#	sf	8c#L 8b	.	8r	.	(2aaa	sf	V7(6)
.	.	8c# 8b	.	(8ee#L	.	.	.	.
.	.	8c# 8b	.	8gg#	.	.	.	.
.	.	8c#J 8b	.	8ff#J	.	.	.	.
.	.	8c#L 8b	.	8ee#L	.	2ggg#)	.	V7
.	.	8c# 8b	.	8bb	.	.	.	.
(8.DL	.	8c# 8b	.	8ddd	.	.	.	.
.	.	8c#J 8b	.	8ee#J)	.	.	.	.
16C#Jk)	.	.	.	.	.	.	.	.
=103	=103	=103	=103	=103	=103	=103	=103	=103
4C#'	.	4c# 4a#	.	4ee	.	8gggX'L	.	iv.#viio65
.	.	.	.	.	.	(8aa#	.	.
4r	.	4r	.	4r	.	8ccc#	.	.
.	.	.	.	.	.	8bbJ)	.	.
2r	.	2r	.	8r	.	(4bb	.	.
.	.	.	.	(8cc#L	.	.	.	.
.	.	.	.	8ee	.	[4aa#	.	.
.	.	.	.	8ddJ)	.	.	.	.
=104	=104	=104	=104	=104	=104	=104	=104	=104
1r	.	1r	.	(4dd	.	8aa#L])	.	.
.	.	.	.	.	.	(8aa#	.	.
.	.	.	.	4.cc#)	.	8gggX	.	.
.	.	.	.	.	.	8fff#J)	.	.
.	.	.	.	.	.	(4fff#	.	.
.	.	.	.	(8cc#L	.	.	.	.
.	.	.	.	8ggX	.	[4eee	.	.
.	.	.	.	8ff#J)	.	.	.	.
=105	=105	=105	=105	=105	=105	=105	=105	=105
2r	.	8r	.	(4ff#	.	8eeeL])	.	#viio
!	!	!LO:TX:b:t=cresc.	!	!	!	!	!	!
.	.	(8A#L	.	.	.	(8cccc#	.	.
.	.	8c#	.	4ee)	.	8aaa#	.	.
.	.	8BJ	.	.	.	8bbbJ	.	.
8r	.	8A#'L)	.	8r	.	8cccc#'L)	.	.
!LO:TX:b:t=cresc.	!	!	!	!LO:TX:a:t=cresc.	!	!	!	!
(8A#L	.	(8c#	.	(8eeeL	.	(8gggX	.	#viio7
8c#	.	8e	.	8ccc#	.	8eee	.	.
8BJ	.	8dJ	.	8dddJ	.	8fff#J	.	.
=106	=106	=106	=106	=106	=106	=106	=106	=106
8A#'L)	.	8c#'L)	.	8eee'L)	.	8gggX'L)	.	.
(8c#	.	(8a#	.	(8ggX	.	(8eee	.	.
8e	.	8cc#	.	8ee	.	8ccc#	.	.
8dJ	.	8bJ	.	8ff#J	.	8dddJ	.	.
8c#'L)	.	8a#'L)	.	8gg'L)	.	8eee'L)	.	.
8F#	.	8A#	.	(8ee	.	(8ggX	.	V7
8F#	.	8A#	.	8dd	.	8ff#	.	.
8F#J	.	8A#J	.	8cc#J)	.	8eeJ)	.	.
=107	=107	=107	=107	=107	=107	=107	=107	=107
8GXL	p	8BL	p	8bL	p	4dd	p	.bVI
8G	.	8d	.	8b	.	.	.	.
8G	.	8d	.	8b	.	([4ddd	.	.
8GJ	.	8dJ	.	8bJ	.	.	.	.
8GL	.	8dL	.	8bL	.	8dddL]	.	.
8G	.	8d	.	8b	.	8ccc#)	.	.
8G	.	8d	.	8b	.	(8ccc#	.	.
8GJ	.	8dJ	.	8bJ	.	8bbJ)	.	.
=108	=108	=108	=108	=108	=108	=108	=108	=108
!LO:TX:b:t=cresc.	!	!LO:TX:b:t=cresc.	!	!LO:TX:b:t=cresc.	!	!LO:TX:b:t=cresc.	!	!
8GXL	.	8dL	.	8bL	.	(8bbL	.	.
8G	.	8d	.	8b	.	8aa)	.	.
8G	.	8d	.	8b	.	(8aa	.	.
8GJ	.	8dJ	.	8bJ	.	8ggXJ)	.	.
8GL	.	8dL	.	8bL	.	(8ggL	.	.
8G	.	(8d	.	8b	.	8ff#)	.	.
8G	.	8B	.	8dd	.	(8ff#	.	.
8GJ	.	8dJ)	.	8bJ	.	8ee#J)	.	.Ger6
=109	=109	=109	=109	=109	=109	=109	=109	=109
4F#'	ff	4F#' 4f#	ff	4c#' 4a# 4ff#	ff	4ff#'	.	V
4BB'	.	4F#' 4f#	.	4d' 4b 4ff#	.	4r	.	i
4F#'	.	4F#' 4f#	.	4c#' 4a# 4ff#	.	4cc#' 4aa# 4fff#	ff	V
4r	.	4r	.	4r	.	4r	.	.
=110	=110	=110	=110	=110	=110	=110	=110	=110
4BB'	.	4F#' 4f#	.	4d' 4b 4ff#	.	2r	.	V
4F#'	.	4F#' 4f#	.	4c#' 4a# 4ff#	.	.	.	.
4BB'	.	4F#' 4f#	.	4d' 4b 4ff#	.	4r	.	i
4r	.	4r	.	4r	.	4dd' 4bb 4fff#	.	.
=111	=111	=111	=111	=111	=111	=111	=111	=111
4FF#' 4F#	.	4F#' 4f#	.	4c#' 4a# 4ff#	.	4r	.	V
4r	.	4r	.	4r	.	4cc#' 4aa# 4fff#	.	.
4BB'	.	4F#' 4f#	.	4d' 4b 4ff#	.	4r	.	i
4r	.	4r	.	4r	.	4dd' 4bb 4fff#	.	.
=112	=112	=112	=112	=112	=112	=112	=112	=112
4FF#' 4F#	.	4F#' 4f#	.	4c#' 4a# 4ff#	.	4r	.	V\\
*clefG2	*	*	*	*	*	*	*	*
!LO:TX:b:t=decresc	!	!	!	!	!	!	!	!
2f#	.	4r	.	4r	.	4cc#' 4aa# 4fff#	.	.
.	.	2r	.	2r	.	2r	.	.
4f#	.	.	.	.	.	.	.	.
=113	=113	=113	=113	=113	=113	=113	=113	=113
(8f#L	p	4B	p	8d#'L	p	1r	.	V7
8dd#J)	.	.	.	8f#'	.	.	.	.
(2dd#	.	4r	.	8b'	.	.	.	.
.	.	.	.	8f#'J	.	.	.	.
.	.	4F#	.	8a#'L	.	.	.	.
.	.	.	.	8f#'	.	.	.	.
4cc#)	.	4r	.	8e'	.	.	.	.
.	.	.	.	8f#'J	.	.	.	.
=114	=114	=114	=114	=114	=114	=114	=114	=114
16qqb#X/LL	.	.	.	.	.	.	.	.
16qqcc#/	.	.	.	.	.	.	.	.
16qqdd#/JJ	.	.	.	.	.	.	.	.
(2cc#	.	4B	.	8e'L	.	8r	.	I[V2
.	.	.	.	8a#'	.	8fff#'L	p	.
.	.	4r	.	8f#'	.	8fff#'	.	.
.	.	.	.	8e'J	.	8fff#'J	.	.
4b')	.	2r	.	8d#'L	.	(8eee#L	.	I6]
.	.	.	.	8f#'	.	8fff#)	.	.
4f#	.	.	.	8b'	.	8ddd#'	.	I
.	.	.	.	8dd#'J	.	8bb'J	.	.
=115	=115	=115	=115	=115	=115	=115	=115	=115
(8f#L	.	4A#	.	8cc#'L	.	4ff#	.	V65
8eeJ)	.	.	.	8f#'	.	.	.	.
(2ee	.	4r	.	8cc#'	.	4r	.	.
.	.	.	.	8f#'J	.	.	.	.
.	.	4B	.	8bL	.	2r	.	I
.	.	.	.	8f#	.	.	.	.
4dd#)	.	4r	.	8b	.	.	.	.
.	.	.	.	8f#J	.	.	.	.
=116	=116	=116	=116	=116	=116	=116	=116	=116
16qqcc#/LL	.	.	.	.	.	.	.	.
16qqdd#/	.	.	.	.	.	.	.	.
16qqee/JJ	.	.	.	.	.	.	.	.
(2dd#	.	4F#	.	8bL	.	8r	.	V(64)
.	.	.	.	8f#	.	8fff#'L	.	.
.	.	4r	.	8b	.	8fff#'	.	.
.	.	.	.	8f#J	.	8fff#'J	.	.
4cc#')	.	4r	.	8a#L	.	(8eee#L	.	V
.	.	.	.	8f#	.	8fff#	.	.
4f#	.	4e	.	8cc#	.	8ggg#	.	V2
.	.	.	.	8a#J	.	8fff#J)	.	.
=117	=117	=117	=117	=117	=117	=117	=117	=117
(8f#L	.	4d#	.	8bL	.	(2fff#	.	I6
8ff#J)	.	.	.	8f#	.	.	.	.
2ff#	.	4r	.	8b	.	.	.	.
.	.	.	.	8f#J	.	.	.	.
.	.	4c#	.	8eL	.	4ggg#	.	viio6
.	.	.	.	8f#	.	.	.	.
[4ee	.	4r	.	8f#	.	4aaa#	.	.
.	.	.	.	8f#J	.	.	.	.
=118	=118	=118	=118	=118	=118	=118	=118	=118
4ee]	.	4B	.	8f#L	.	4bbb	.	I(4)
.	.	.	.	8d#	.	.	.	.
2dd#	.	4r	.	8f#	.	4ddd#	.	I
.	.	.	.	8d#J	.	.	.	.
.	.	4A#	.	8cc#L	.	4eee#	.	V43/vi
.	.	.	.	8d#	.	.	.	.
([4cc#	.	4r	.	8cc#	.	4fff##X)	.	.
.	.	.	.	8d#J	.	.	.	.
=119	=119	=119	=119	=119	=119	=119	=119	=119
8cc#L]	.	4G#	.	8bL	.	4ggg#'	.	vi
8b)	.	.	.	8d#	.	.	.	.
8a#'	.	4r	.	8b	.	(4gg#	.	.
8g#'J	.	.	.	8d#J	.	.	.	.
(8g#L	.	4c#	.	8bL	.	4bb	.	V7/V
8f#)	.	.	.	8c#	.	.	.	.
(8f#	.	4r	.	8b	.	4ee#)	.	.
8e#J)	.	.	.	8c#J	.	.	.	.
=120	=120	=120	=120	=120	=120	=120	=120	=120
!	!	!	!	!	!	!LO:TX:b:t=cresc.	!	!
4f#	.	4F#	.	(4a#	.	(8gg#L	.	V
.	.	.	.	.	.	8ff#	.	.
*clefF4	*	*	*	*	*	*	*	*
!LO:TX:b:t=cresc.	!	!LO:TX:b:t=cresc.	!	!LO:TX:a:t=cresc.	!	!	!	!
(4E	.	2F# 2f#	.	2f#	.	8ee#	.	V2
.	.	.	.	.	.	8ff#J	.	.
4C#	.	.	.	.	.	8ee#L	.	V64
.	.	.	.	.	.	8ff#	.	.
4AA#)	.	4F# 4f#	.	4e)	.	8ggX	.	V65
.	.	.	.	.	.	8ff#J)	.	.
=121	=121	=121	=121	=121	=121	=121	=121	=121
(2BB	p	(2f# [1F#	p	(8dXL	p	(8ddL	p	i\\
.	.	.	.	8f#	.	8dddXJ)	.	.
.	.	.	.	8dd	.	(2ddd	.	iv.V7
.	.	.	.	8bJ)	.	.	.	.
2FF#)	.	2e	.	(8a#L	.	.	.	.
.	.	.	.	8cc#	.	.	.	.
.	.	.	.	8ff#	.	4ccc#)	.	.
.	.	.	.	8a#J)	.	.	.	.
=122	=122	=122	=122	=122	=122	=122	=122	=122
8BB'L	.	8F#'L]) 8d	.	8b'L	.	4bb	.	i
(8F#	.	(8f#	.	(8ff#	.	.	.	.
8E#	.	8e#	.	8ee#	.	4r	.	.
8F#J	.	8f#J	.	8ff#J	.	.	.	.
8GXL	.	8gXL	.	8ggXL	.	4r	.	.
8F#	.	8f#	.	8ff#	.	.	.	.
8D	.	8d	.	8dd	.	4ff#	.	.
8BBJ)	.	8BJ)	.	8bJ)	.	.	.	.
=123	=123	=123	=123	=123	=123	=123	=123	=123
(2AA#	.	[1F# [1f#	.	(8f#L	.	(8ff#L	.	V65
.	.	.	.	8cc#	.	8eeeJ)	.	.
.	.	.	.	8ff#	.	(2eee	.	i(4)
.	.	.	.	8eeJ	.	.	.	.
2BB)	.	.	.	8ddL	.	.	.	.
.	.	.	.	8ff#	.	.	.	.
.	.	.	.	8dd	.	4ddd)	.	i
.	.	.	.	8bJ)	.	.	.	.
=124	=124	=124	=124	=124	=124	=124	=124	=124
8FF#'L	.	8F#'L] 8f#]	.	8a#'L	.	4ccc#	.	V\\
(8f#	.	(8f#	.	(8ff#	.	.	.	.
8gX	.	8gX	.	8ggX	.	4r	.	.
8eJ	.	8eJ	.	8eeJ	.	.	.	.
8c#L	.	8c#L	.	8cc#L	.	4r	.	.
8A#	.	8A#	.	8a#	.	.	.	.
8F#	.	8f#	.	8f#	.	4ff#	.	.
8EJ)	.	8eJ)	.	8eJ)	.	.	.	.
=125	=125	=125	=125	=125	=125	=125	=125	=125
!LO:TX:b:t=cresc.	!	!	!	!	!	!LO:TX:b:t=cresc.	!	!
2D	.	4d	.	4d	.	(8ff#L	.	III
.	.	.	.	.	.	8fff#J)	.	.
!	!	!	!	!LO:TX:b:t=cresc.	!	!	!	!
.	.	4r	.	(8bL	.	2fff#	.	V65
.	.	.	.	8ff#J)	.	.	.	.
!	!	!LO:TX:b:t=cresc.	!	!	!	!	!	!
2A#	.	(8c#L	.	[2ff#	.	.	.	.
.	.	8cc#J)	.	.	.	.	.	.
.	.	([4cc#	.	.	.	[4eee	.	.
=126	=126	=126	=126	=126	=126	=126	=126	=126
2B	.	4cc#]	.	4ff#]	.	4eee]	.	i(94)
.	.	4b)	.	(8f#L	.	2ddd	.	III6
.	.	.	.	8ddJ)	.	.	.	.
2F#	.	(8AL	.	[2dd	.	.	.	.
.	.	8aJ)	.	.	.	.	.	.
.	.	([4a	.	.	.	[4cccX	.	V65/VI
=127	=127	=127	=127	=127	=127	=127	=127	=127
2GX	.	4a]	.	4dd]	.	4ccc]	.	VI(94)
.	.	4gX)	.	(8dL	.	2bb	.	V6/iv
.	.	.	.	8bJ)	.	.	.	.
2D#	.	(8F#L	.	[2b	.	.	.	.
.	.	8f#J)	.	.	.	.	.	.
.	.	([4f#	.	.	.	[4aa	.	V65/iv
=128	=128	=128	=128	=128	=128	=128	=128	=128
2E	.	4f#]	.	4b]	.	4aa]	.	iv(94)
.	.	4e	.	(2b	.	2ggX	.	.bVI64
2DX	.	4B	.	.	.	.	.	.
.	.	4B#X)	.	4b#X)	.	4ff#	.	i.It6
=129	=129	=129	=129	=129	=129	=129	=129	=129
4C#'	pp	16c#LL	pp	16cc#LL	pp	4ee#	pp	V\\
.	.	16e#	.	16g#	.	.	.	.
.	.	16e#	.	16g#	.	.	.	.
.	.	16e#JJ	.	16g#JJ	.	.	.	.
4E#'	.	16e#LL	.	16g#LL	.	4r	.	.
.	.	16e#	.	16g#	.	.	.	.
.	.	16e#	.	16g#	.	.	.	.
.	.	16e#JJ	.	16g#JJ	.	.	.	.
4G#'	.	16e#LL	.	16g#LL	.	4r	.	.
.	.	16e#	.	16g#	.	.	.	.
.	.	16e#	.	16g#	.	.	.	.
.	.	16e#JJ	.	16g#JJ	.	.	.	.
4c#'	.	16e#LL	.	16g#LL	.	(8cc#L	.	.
.	.	16e#	.	16g#	.	.	.	.
.	.	16e#	.	16g#	.	8ccc#J)	.	.
.	.	16e#JJ	.	16g#JJ	.	.	.	.
=130	=130	=130	=130	=130	=130	=130	=130	=130
*	*	*tremolo	*	*	*	*	*	*
*	*	*	*	*tremolo	*	*	*	*
4C#	.	16e#LL	.	16g#LL	.	(8ee#L	.	.
.	.	16e#	.	16g#	.	.	.	.
.	.	16e#	.	16g#	.	8ccc#)	.	.
.	.	16e#	.	16g#	.	.	.	.
4r	.	16e#	.	16g#	.	(8gg#	.	.
.	.	16e#	.	16g#	.	.	.	.
.	.	16e#	.	16g#	.	8ccc#J)	.	.
.	.	16e#JJ	.	16g#JJ	.	.	.	.
2r	.	16e#LL	.	16g#LL	.	(8bb#XL	.	.
.	.	16e#	.	16g#	.	.	.	.
.	.	16e#	.	16g#	.	8ccc#)	.	.
.	.	16e#	.	16g#	.	.	.	.
.	.	16e#	.	16g#	.	(8bb	.	.
.	.	16e#	.	16g#	.	.	.	.
.	.	16e#	.	16g#	.	8ccc#J)	.	.
.	.	16e#JJ	.	16g#JJ	.	.	.	.
=131	=131	=131	=131	=131	=131	=131	=131	=131
4C#'	.	16f#LL	.	16aLL	.	(8aaL	.	V(64)
.	.	16f#	.	16a	.	.	.	.
.	.	16f#	.	16a	.	8ccc#J)	.	.
.	.	16f#	.	16a	.	.	.	.
4F#'	.	16f#	.	16a	.	4r	.	.
.	.	16f#	.	16a	.	.	.	.
.	.	16f#	.	16a	.	.	.	.
.	.	16f#JJ	.	16aJJ	.	.	.	.
4A'	.	16f#LL	.	16aLL	.	4r	.	.
.	.	16f#	.	16a	.	.	.	.
.	.	16f#	.	16a	.	.	.	.
.	.	16f#	.	16a	.	.	.	.
4c#'	.	16f#	.	16a	.	(8cc#L	.	.
.	.	16f#	.	16a	.	.	.	.
.	.	16f#	.	16a	.	8ccc#J)	.	.
.	.	16f#JJ	.	16aJJ	.	.	.	.
=132	=132	=132	=132	=132	=132	=132	=132	=132
4C#	.	16f#LL	.	16aLL	.	(8ff#L	.	.
.	.	16f#	.	16a	.	.	.	.
.	.	16f#	.	16a	.	8ccc#)	.	.
.	.	16f#	.	16a	.	.	.	.
4r	.	16f#	.	16a	.	(8aa	.	.
.	.	16f#	.	16a	.	.	.	.
.	.	16f#	.	16a	.	8ccc#J)	.	.
.	.	16f#JJ	.	16aJJ	.	.	.	.
2r	.	16f#LL	.	16aLL	.	(8bb#XL	.	.
.	.	16f#	.	16a	.	.	.	.
.	.	16f#	.	16a	.	8ccc#)	.	.
.	.	16f#	.	16a	.	.	.	.
.	.	16f#	.	16a	.	(8aa	.	.
.	.	16f#	.	16a	.	.	.	.
.	.	16f#	.	16a	.	8ccc#J)	.	.
.	.	16f#JJ	.	16aJJ	.	.	.	.
=133	=133	=133	=133	=133	=133	=133	=133	=133
8C#L	.	16e# 16g#LL	.	16c# 16bLL	.	(8gg#L	.	V7
.	.	16e# 16g#	.	16c# 16b	.	.	.	.
8r	.	16e# 16g#	.	16c# 16b	.	8ccc#J)	.	.
.	.	16e# 16g#	.	16c# 16b	.	.	.	.
8E#J	.	16e# 16g#	.	16c# 16b	.	4r	.	.
.	.	16e# 16g#	.	16c# 16b	.	.	.	.
8r	.	16e# 16g#	.	16c# 16b	.	.	.	.
.	.	16e# 16g#JJ	.	16c# 16bJJ	.	.	.	.
8G#L	.	16e# 16g#LL	.	16c# 16bLL	.	4r	.	.
.	.	16e# 16g#	.	16c# 16b	.	.	.	.
8r	.	16e# 16g#	.	16c# 16b	.	.	.	.
.	.	16e# 16g#	.	16c# 16b	.	.	.	.
8c#J	.	16e# 16g#	.	16c# 16b	.	(8cc#L	.	.
.	.	16e# 16g#	.	16c# 16b	.	.	.	.
8r	.	16e# 16g#	.	16c# 16b	.	8ccc#J)	.	.
.	.	16e# 16g#JJ	.	16c# 16bJJ	.	.	.	.
=134	=134	=134	=134	=134	=134	=134	=134	=134
!LO:TX:b:t=cresc.	!	!LO:TX:b:t=cresc.	!	!LO:TX:b:t=cresc.	!	!LO:TX:b:t=cresc.	!	!
8dL	.	16e# 16g#LL	.	16c# 16bLL	.	(8ddL	.	.
.	.	16e# 16g#	.	16c# 16b	.	.	.	.
8r	.	16e# 16g#	.	16c# 16b	.	8ccc#)	.	.
.	.	16e# 16g#	.	16c# 16b	.	.	.	.
8e#J	.	16e# 16g#	.	16c# 16b	.	(8ee#	.	.
.	.	16e# 16g#	.	16c# 16b	.	.	.	.
8r	.	16e# 16g#	.	16c# 16b	.	8ccc#J)	.	.
.	.	16e# 16g#JJ	.	16c# 16bJJ	.	.	.	.
8g#L	.	16e# 16g#LL	.	16c# 16bLL	.	(8gg#L	.	.
.	.	16e# 16g#	.	16c# 16b	.	.	.	.
8r	.	16e# 16g#	.	16c# 16b	.	8ccc#)	.	.
.	.	16e# 16g#	.	16c# 16b	.	.	.	.
8aJ	.	16e# 16g#	.	16c# 16b	.	(8aa	.	.
.	.	16e# 16g#	.	16c# 16b	.	.	.	.
8r	.	16e# 16g#	.	16c# 16b	.	8ccc#J)	.	.
.	.	16e# 16g#JJ	.	16c# 16bJJ	.	.	.	.
=135	=135	=135	=135	=135	=135	=135	=135	=135
8bL	.	16e# 16g#LL	.	16c# 16bLL	.	(8bbL	.	.
.	.	16e# 16g#	.	16c# 16b	.	.	.	.
8r	.	16e# 16g#	.	16c# 16b	.	8ccc#)	.	.
.	.	16e# 16g#	.	16c# 16b	.	.	.	.
8g#J	.	16e# 16g#	.	16c# 16b	.	(8gg#	.	.
.	.	16e# 16g#	.	16c# 16b	.	.	.	.
8r	.	16e# 16g#	.	16c# 16b	.	8ccc#J)	.	.
.	.	16e# 16g#JJ	.	16c# 16bJJ	.	.	.	.
8e#L	.	16e# 16g#LL	.	16c# 16bLL	.	(8ee#L	.	.
.	.	16e# 16g#	.	16c# 16b	.	.	.	.
8r	.	16e# 16g#	.	16c# 16b	.	8ccc#)	.	.
.	.	16e# 16g#	.	16c# 16b	.	.	.	.
8dJ	.	16e# 16g#	.	16c# 16b	.	(8dd	.	.
.	.	16e# 16g#	.	16c# 16b	.	.	.	.
8r	.	16e# 16g#	.	16c# 16b	.	8ccc#J)	.	.
.	.	16e# 16g#JJ	.	16c# 16bJJ	.	.	.	.
=136	=136	=136	=136	=136	=136	=136	=136	=136
8c#L	.	16c# 16bLL	.	16e#LL	.	(8cc#L	.	.
.	.	16c# 16b	.	16ee#	.	.	.	.
8r	.	16c# 16b	.	16ee#	.	8ccc#)	.	.
.	.	16c# 16b	.	16ee#JJ	.	.	.	.
8BJ	.	16c# 16b	.	16ee#LL	.	(8b	.	.
.	.	16c# 16b	.	16ee#	.	.	.	.
8r	.	16c# 16b	.	16ee#	.	8bbJ)	.	.
.	.	16c# 16bJJ	.	16ee#JJ	.	.	.	.
8AL	.	16c# 16bLL	.	16ee#LL	.	(8aL	.	.
.	.	16c# 16b	.	16ee#	.	.	.	.
8r	.	16c# 16b	.	16ee#	.	8aa)	.	.
.	.	16c# 16b	.	16ee#JJ	.	.	.	.
8G#J	.	16c# 16b	.	16ee#LL	.	(8g#	.	.
.	.	16c# 16b	.	16ee#	.	.	.	.
8r	.	16c# 16b	.	16ee#	.	8gg#J)	.	.
.	.	16c# 16bJJ	.	16ee#JJ	.	.	.	.
*	*	*Xtremolo	*	*Xtremolo	*	*	*	*
=137	=137	=137	=137	=137	=137	=137	=137	=137
8FF#L	f	8c# 8a	f	8ff#	f	[2f#	f	i[i
!	!	!	!LO:DY:a	!	!	!	!	!
8F#	p	4A	p p	4c#	.	.	.	.
8F#	.	.	.	.	.	.	.	.
8F#J	.	4A	.	4c#	.	.	.	.
8F#L	.	.	.	.	.	8f#L]	p	.
.	.	.	.	.	.	16qqg#/LL	.	.
.	.	.	.	.	.	16qqf#/	.	.
.	.	.	.	.	.	16qqe#/JJ	.	.
8F#	.	4A	.	4c#	.	(8f#	.	.
8F#	.	.	.	.	.	8a	.	.
8F#J	.	8B	.	8e#	.	8g#J)	.	#viio64
=138	=138	=138	=138	=138	=138	=138	=138	=138
8F#L	sf	8BL	.	8e#	.	(2g#	sf	.
!	!LO:DY:a	!	!	!	!	!	!	!
8F#	sf	(8dd	.	4ee#	sf	.	.	.
8F#	.	8cc#	.	.	.	.	.	.
8F#J	.	8bJ	.	(8ee#	.	.	.	.
8F#L	.	8aL	.	8ff#L	.	4f#)	.	i6
8F#	.	8g#	.	8gg#	.	.	.	.
8F#	.	8f#	.	8aa	.	4f#	.	.
8F#J	.	8eJ)	.	8aa#J)	.	.	.	.
=139	=139	=139	=139	=139	=139	=139	=139	=139
8FF#L	.	8d'	.	8bb'	.	[2b	.	iv6
8F#	.	4d	.	4f#	.	.	.	.
8F#	.	.	.	.	.	.	.	.
8F#J	.	4d	.	4f#	.	.	.	.
8F#L	.	.	.	.	.	8bL]	.	.
.	.	.	.	.	.	16qqcc#/LL	.	.
.	.	.	.	.	.	16qqb/	.	.
.	.	.	.	.	.	16qqa#/JJ	.	.
8F#	.	4d	.	4f#	.	(8b	.	.
8F#	.	.	.	.	.	8dd	.	.
8F#J	.	8e	.	8a#	.	8cc#J)	.	#iiio64
=140	=140	=140	=140	=140	=140	=140	=140	=140
8F#L	sf	8eL	.	8a#	.	(2cc#	sf	#iiio2
8F#	.	(8gX	sf	4aa#	sf	.	.	.
8F#	.	8f#	.	.	.	.	.	.
8F#J	.	8eJ	.	(8aa#	.	.	.	.
8F#L	.	8dL	.	8bb'L)	.	4b)	.	iv6
8F#	.	8c#	.	8bb	.	.	.	.
8F#	.	8B	.	8ccc#	.	4b	.	.
8F#J	.	8AJ)	.	8dddJ	.	.	.	.
=141	=141	=141	=141	=141	=141	=141	=141	=141
8FF#L	.	(8G#L	.	(8dddL	.	(8bL	.	.
8F#	.	8dJ)	.	8bJ)	.	8gg#J)	.	.
8F#	.	(2d	.	(2b	.	(2gg#	.	iio6
8F#J	.	.	.	.	.	.	.	.
8F#L	.	.	.	.	.	.	.	.
8F#	.	.	.	.	.	.	.	.
8F#	.	4c#)	.	4a)	.	4ff#)	.	i64
8F#J	.	.	.	.	.	.	.	.
=142	=142	=142	=142	=142	=142	=142	=142	=142
8FF#L	.	(8BL	.	(8g#L	.	(8ee#L	.	#viio64
8F#	.	8e#J)	.	8ddJ)	.	8bbJ)	.	#viio7
8F#	.	(2e#	.	(2dd	.	(2bb	.	.
8F#J	.	.	.	.	.	.	.	.
8F#L	.	.	.	.	.	.	.	.
8F#	.	.	.	.	.	.	.	.
8F#	.	4f#)	.	4cc#)	.	4aa)	.	i]
8F#J	.	.	.	.	.	.	.	.
=143	=143	=143	=143	=143	=143	=143	=143	=143
8BL	.	8bL	.	8ddL	.	(8aaL	.	ii6(2)
8B	.	8b	.	8dd	.	8gg#J)	.	ii6
8d	.	8a	.	8b#X	.	(2ff#	.	#viio7/V
8dJ	.	8aJ	.	8b#J	.	.	.	.
8B#XL	.	8aL	.	8dd#L	.	.	.	.
8B#	.	8a	.	8dd#	.	.	.	.
8c#	.	8g#	.	8b	.	4ee#)	.	V7
8c#J	.	8g#J	.	8bJ	.	.	.	.
=144	=144	=144	=144	=144	=144	=144	=144	=144
8AL	.	8c#L	.	8cc#L	.	(4.ff#	.	i6
8A	.	8c#	.	8cc#	.	.	.	.
8A	.	8c#	.	8cc#	.	.	.	.
8E#J	.	8bJ	.	8cc#J	.	8gg#)	.	V65
8F#L	.	8aL	.	8cc#L	.	4aa	.	i
8c#'	.	8c#'	.	8cc#'	.	.	.	.
8A'	.	8A'	.	8a'	.	8r	.	.
8F#'J	.	8F#'J	.	8f#'J	.	8ff#	.	.
=145	=145	=145	=145	=145	=145	=145	=145	=145
8C#L	.	8c#L	.	8c#L	.	(8ee#L	.	V7
8B	.	8g#	.	8ee#	.	8dddJ)	.	#viio43
8B	.	8g#	.	8ee#	.	(2ddd	.	.
8BJ	.	8g#J	.	8ee#J	.	.	.	.
8BL	.	8g#L	.	8ee#L	.	.	.	.
8B	.	8g#	.	8ee#	.	.	.	.
8A	.	8a	.	8ff#	.	4ccc#)	.	i6
8AJ	.	8aJ	.	8ff#J	.	.	.	.
=146	=146	=146	=146	=146	=146	=146	=146	=146
8r	.	8r	.	8r	.	(8bbL	.	.
8E#L	.	8c#L	.	8gg#L	.	8bbbJ)	.	V65
8E#	.	8c#	.	8gg#	.	(2bbb	.	.
8E#J	.	8c#J	.	8gg#J	.	.	.	.
8E#L	.	8c#L	.	8gg#L	.	.	.	.
8E#	.	8c#	.	8gg#	.	.	.	.
8F#	.	8c#	.	8aa	.	4aaa)	.	i
8F#J	.	8c#J	.	8aaJ	.	.	.	.
=147	=147	=147	=147	=147	=147	=147	=147	=147
!LO:TX:b:t=cresc.	!	!LO:TX:b:t=cresc.	!	!LO:TX:b:t=cresc.	!	!LO:TX:b:t=cresc.	!	!
8BBL	.	8B	.	(4aa	.	(4aaa	.	ii%65(2)
8B	.	8f#L 8dd	.	.	.	.	.	.
8B	.	8f# 8dd	.	[4gg#)	.	[4ggg#)	.	ii%65
8BJ	.	8f#J 8dd	.	.	.	.	.	.
8dL	.	8f#L 8b	.	8gg#L]	.	8ggg#L]	.	ii%43
8d	.	8f# 8b	.	(8gg#	.	(8ggg#	.	.
8B	.	8f# 8dd	.	8bb	.	8bbb	.	ii%65
8BJ	.	8f#J 8dd	.	8gg#J)	.	8ggg#J)	.	.
=148	=148	=148	=148	=148	=148	=148	=148	=148
8B#XL	.	8f#L 8dd#	.	(4gg#	.	(4ggg#	.	V65/V
8B#	.	8f# 8dd#	.	.	.	.	.	.
8d	.	8b#X	.	2a 2ff#	.	2fff#	.	V(64)
8dJ	.	8b#J	.	.	.	.	.	.
8c#L	.	8cc#L	.	.	.	.	.	.
8c#	.	8cc#	.	.	.	.	.	.
8C#	.	8c#	.	4g#) 4ee#	.	4eee#)	.	V7
8C#J	.	8c#J	.	.	.	.	.	.
=149	=149	=149	=149	=149	=149	=149	=149	=149
!	!	!	!LO:DY:a	!	!	!	!	!
4F#'	f	4f#'	f f	4c#' 4a 4ff#	.	4fff#	.	i\\
4r	.	4r	.	4r	.	4r	.	.
4C#'	.	4c#' 4cc#	.	4c#' 4g# 4ee#	.	2r	.	V
4r	.	4r	.	4r	.	.	.	.
=150	=150	=150	=150	=150	=150	=150	=150	=150
4F#'	.	4c#' 4cc#	.	4c#' 4a 4ff#	.	2r	.	V
4C#'	.	4c#' 4cc#	.	4c#' 4g# 4ee#	.	.	.	.
4F#'	.	4c#' 4cc#	.	4c#' 4a 4ff#	.	4r	.	i
4r	.	4r	.	4r	.	4cc#' 4aa 4fff#	f	.
=151	=151	=151	=151	=151	=151	=151	=151	=151
4C#'	.	4c#' 4cc#	.	4c#' 4g# 4ee#	.	2r	.	i
4F#'	.	4c#' 4cc#	.	4c#' 4a 4ff#	.	.	.	.
4C#'	.	4c#' 4cc#	.	4c#' 4g# 4ee#	.	4r	.	V
4r	.	4r	.	4r	.	4cc#' 4gg# 4eee#	.	.
=152	=152	=152	=152	=152	=152	=152	=152	=152
4F#'	.	4c#' 4cc#	.	4c#' 4a 4ff#	.	2r	.	V
4C#'	.	4c#' 4cc#	.	4c#' 4g# 4ee#	.	.	.	.
4F#'	.	4c#' 4cc#	.	4c#' 4a 4ff#	.	4r	.	i
4r	.	4r	.	4r	.	4cc#' 4aa 4fff#	.	.
=153	=153	=153	=153	=153	=153	=153	=153	=153
4D'	.	4d' 4dd	.	4d' 4a 4ff#	.	2r	.	.bII
4GX'	.	4d' 4dd	.	4d' 4b 4ggX	.	.	.	.
4D'	.	4d' 4dd	.	4d' 4a 4ff#	.	4r	.	VI
4r	.	4r	.	4r	.	4dd' 4aa 4fff#	.	.
=154	=154	=154	=154	=154	=154	=154	=154	=154
4GX'	.	4d' 4dd	.	4d' 4b 4ggX	.	2r	.	VI
4D'	.	4d' 4dd	.	4d' 4a 4ff#	.	.	.	.
4G'	.	4d' 4dd	.	4d' 4b 4gg	.	4r	.	.bII
4r	.	4r	.	4r	.	4dd' 4bb 4gggX	.	.
=155	=155	=155	=155	=155	=155	=155	=155	=155
4E'	.	4e'	.	4e' 4b 4gg#	.	2r	.	iii
4A'	.	4ee'	.	4e' 4ccX 4aa	.	.	.	.
4E'	.	4ee'	.	4e' 4b 4gg#	.	4r	.	VII
4r	.	4r	.	4r	.	4ee' 4bb 4ggg#	.	.
=156	=156	=156	=156	=156	=156	=156	=156	=156
4CX'	ff	4ee'	ff	4a' 4aa	ff	4r	.	iii
4r	.	4r	.	4r	.	4aaa'	ff	.
4C#'	.	4c#' 4a#	.	4cc#' 4ee 4aa#	.	4r	.	#viio65/iv
4r	.	4r	.	4r	.	4gggX'	.	.
=157	=157	=157	=157	=157	=157	=157	=157	=157
4D'	.	4d' 4b	.	4b' 4ff# 4bb	.	4r	.	iv6
4r	.	4r	.	4r	.	4fff#'	.	.
4D'	.	4d' 4b#X	.	4ff#' 4bb#X	.	4r	.	.It6
4r	.	4r	.	4r	.	4fff#'	.	.
=158	=158	=158	=158	=158	=158	=158	=158	=158
!	!	!	!	!	!	!LO:TX:b:t=decresc.	!	!
4C#'	.	4c#' 4cc#	.	4ee#' 4ccc#	.	4cc#' 4gg# 4eee#	.	V\\
4r	.	4r	.	4r	.	2cc#	.	.
2r	.	2r	.	2r	.	.	.	.
.	.	.	.	.	.	4cc#	.	.
=159	=159	=159	=159	=159	=159	=159	=159	=159
4F#	p	8A#'L	p	1r	.	(8cc#L	p	I.I
.	.	8c#'	.	.	.	8aa#J)	.	.
4r	.	8f#'	.	.	.	(2aa#	.	V(6)
.	.	8c#'J	.	.	.	.	.	.
4C#	.	8e#'L	.	.	.	.	.	.
.	.	8c#'	.	.	.	.	.	.
4r	.	8B'	.	.	.	4gg#)	.	V
.	.	8c#'J	.	.	.	.	.	.
=160	=160	=160	=160	=160	=160	=160	=160	=160
.	.	.	.	.	.	16qqff##X/LL	.	I(9)
.	.	.	.	.	.	16qqgg#/	.	.
.	.	.	.	.	.	16qqaa#/JJ	.	.
4F#	.	8BL	.	8r	.	(2gg#	.	.
.	.	8c#	.	8ccc#'L	p	.	.	.
4r	.	8B	.	8ccc#'	.	.	.	.
.	.	8c#J	.	8ccc#'J	.	.	.	.
2r	.	8A#L	.	(8bb#XL	.	4ff#)	.	I
.	.	8c#	.	8ccc#)	.	.	.	.
.	.	8f#	.	8aa#'	.	4cc#	.	.
.	.	8a#J	.	8ff#'J	.	.	.	.
=161	=161	=161	=161	=161	=161	=161	=161	=161
4E#	.	8g#L	.	4cc#	.	(8cc#L	.	V65
.	.	8c#	.	.	.	8bbJ)	.	.
4r	.	8g#	.	4r	.	(2bb	.	I(4)
.	.	8c#J	.	.	.	.	.	.
4F#	.	8f#L	.	2r	.	.	.	.
.	.	8c#	.	.	.	.	.	.
4r	.	8f#	.	.	.	4aa#)	.	I
.	.	8c#J	.	.	.	.	.	.
=162	=162	=162	=162	=162	=162	=162	=162	=162
.	.	.	.	.	.	16qqgg#/LL	.	V(64)
.	.	.	.	.	.	16qqaa#/	.	.
.	.	.	.	.	.	16qqbb/JJ	.	.
4C#	.	8f#L	.	8r	.	(2aa#	.	.
.	.	8c#	.	8ccc#'L	.	.	.	.
4r	.	8f#	.	8ccc#'	.	.	.	.
.	.	8c#J	.	8ccc#'J	.	.	.	.
2r	.	8e#L	.	(8bb#XL	.	4gg#)	.	V
.	.	8c#	.	8ccc#	.	.	.	.
.	.	8B	.	8ddd#	.	4cc#	.	.
.	.	8c#J	.	8ccc#J)	.	.	.	.
=163	=163	=163	=163	=163	=163	=163	=163	=163
1r	.	8A#L	.	4ccc#'	.	(8cc#L	.	I6
.	.	8c#	.	.	.	8ccc#J)	.	.
.	.	8a#	.	(4cc#	.	2ccc#	.	V
.	.	8c#J	.	.	.	.	.	.
.	.	8g#L	.	4dd#	.	.	.	.
.	.	8c#	.	.	.	.	.	.
.	.	8g#	.	4ee#	.	[4bb	.	V7
.	.	8c#J	.	.	.	.	.	.
=164	=164	=164	=164	=164	=164	=164	=164	=164
2r	.	8f#L	.	4ff#)	.	4bb]	.	I(4)
.	.	8A#	.	.	.	.	.	.
.	.	8f#	.	(4a#	.	2aa#	.	V/vi
.	.	8A#J	.	.	.	.	.	.
4AA#	.	8e#L	.	4b#X	.	.	.	.
.	.	8A#	.	.	.	.	.	.
4r	.	8e#	.	4cc##X)	.	([4gg#	.	V7/vi
.	.	8A#J	.	.	.	.	.	.
=165	=165	=165	=165	=165	=165	=165	=165	=165
4D#	.	8f#L	.	(4dd#	.	8gg#L]	.	vi(4)
.	.	8A#	.	.	.	8ff#)	.	vi
4r	.	8f#	.	4a#	.	8ee#'	.	.
.	.	8A#J	.	.	.	8dd'J	.	.
4G#	.	8d#L	.	4f#)	.	8cc#'L	.	V7/V
.	.	8G#	.	.	.	8b#X'	.	.
4r	.	8d#	.	8f#L	.	8ff#'	.	.
.	.	8G#J	.	8f#J	.	8b#'J	.	.
=166	=166	=166	=166	=166	=166	=166	=166	=166
!LO:TX:b:t=cresc.	!	!LO:TX:b:t=cresc.	!	!LO:TX:b:t=cresc.	!	!LO:TX:b:t=cresc.	!	!
(4C#	.	2.c#	.	(8e#L	.	(8cc#L	.	V7
.	.	.	.	8cc#	.	8ccc#	.	.
4B	.	.	.	8b#X	.	8bb#X	.	.
.	.	.	.	8cc#J	.	8ccc#J	.	.
4G#	.	.	.	8b#L	.	8bb#L	.	.
.	.	.	.	8cc#	.	8ccc#	.	.
4E#)	.	4B 4c#	.	8dd#	.	8ddd#	.	V65
.	.	.	.	8cc#J)	.	8ccc#J)	.	.
=167	=167	=167	=167	=167	=167	=167	=167	=167
(8F#L	.	(8A#L 8c#	.	(8cc#L	.	[1ccc#t	.	V2
8c#J)	.	8a#J)	.	8aa#J)	.	.	.	.
(2c#	.	(2a#	.	(2aa#	.	.	.	.
4B)	.	4g#)	.	4gg#)	.	.	.	.
=168	=168	=168	=168	=168	=168	=168	=168	=168
.	.	16qqf##X/LL	.	16qqff##X/LL	.	.	.	.
.	.	16qqg#/	.	16qqgg#/	.	.	.	.
.	.	16qqa#/JJ	.	16qqaa#/JJ	.	.	.	.
(2B	.	(2g#	.	(2gg#	.	4ccc#]	.	.
.	.	.	.	.	.	16qqbb#X/LL	.	.
.	.	.	.	.	.	16qqccc#/JJ	.	.
.	.	.	.	.	.	(8eee#L	.	.
.	.	.	.	.	.	8ccc#J	.	.
8A#L)	.	4f#')	.	4ff#')	.	8fff#L	.	I6
(8c#	.	.	.	.	.	8ccc#	.	.
8A#	.	4A#	.	4cc#	.	8aaa#	.	.
8F#J)	.	.	.	.	.	8ccc#J)	.	.
=169	=169	=169	=169	=169	=169	=169	=169	=169
(8E#L	.	(8G#L	.	(8cc#L	.	[1ccc#t	.	#vii%7(+2)
8e#J)	.	8g#J)	.	8bbJ)	.	.	.	.
(4e#	.	(2g#	.	(2bb	.	.	.	.
4f#	.	.	.	.	.	.	.	.
4B#X)	.	4f#)	.	4aa#)	.	.	.	.
=170	=170	=170	=170	=170	=170	=170	=170	=170
.	.	16qqe#/LL	.	16qqgg#/LL	.	.	.	.
.	.	16qqf#/	.	16qqaa#/	.	.	.	.
.	.	16qqg#/JJ	.	16qqbb/JJ	.	.	.	.
8C#L	.	(2f#	.	(2aa#	.	1ccc#]	.	V2
8c#	.	.	.	.	.	.	.	.
8c#	.	.	.	.	.	.	.	.
8c#J	.	.	.	.	.	.	.	.
(8B#XL	.	4e#')	.	4gg#')	.	.	.	.
8c#	.	.	.	.	.	.	.	.
8B	.	8r	.	4cc#	.	.	.	.
8c#J)	.	8e#	.	.	.	.	.	.
.	.	.	.	.	.	16qqbb#X/LL	.	.
.	.	.	.	.	.	16qqccc#/JJ	.	.
=171	=171	=171	=171	=171	=171	=171	=171	=171
(2A#	.	(8f#L	.	(8cc#L	.	(8ccc#L	.	I6
.	.	8c#	.	8ccc#J)	.	8cccc#J)	.	.
.	.	8a#	.	2ccc#	.	2cccc#	.	V43
.	.	8f#J)	.	.	.	.	.	.
2G#	.	(8f#L	.	.	.	.	.	.
.	.	8e#	.	.	.	.	.	.
.	.	8d#	.	[4bb	.	[4bbb	.	.
.	.	8e#J)	.	.	.	.	.	.
=172	=172	=172	=172	=172	=172	=172	=172	=172
2F#	.	(8f#L	.	4bb]	.	4bbb]	.	I(4)
.	.	8A#	.	.	.	.	.	.
.	.	8f#	.	2aa#	.	2aaa#	.	V43/vi
.	.	8d#J)	.	.	.	.	.	.
2E#)	.	(8d#L	.	.	.	.	.	.
.	.	8c##X	.	.	.	.	.	.
.	.	8B#X	.	[4gg#	.	([4ggg#	.	.
.	.	8c##J)	.	.	.	.	.	.
=173	=173	=173	=173	=173	=173	=173	=173	=173
2D#	.	(4d#	.	4gg#]	.	8ggg#L]	.	vi(4)
.	.	.	.	.	.	8fff#)	.	.
.	.	4A#	.	(4ff#	.	8eee#'	.	vi
.	.	.	.	.	.	8ddd#'J	.	.
2GG#	.	4F#	.	4dd#	.	(8ddd#L	.	V7/V
.	.	.	.	.	.	8ccc#)	.	.
.	.	4f#)	.	4b#X)	.	(8ccc#	.	.
.	.	.	.	.	.	8bb#XJ)	.	.
=174	=174	=174	=174	=174	=174	=174	=174	=174
8C#L	p	8e#L	p	8cc#L	p	[2ccc#	p	V[V6
8c#	.	8e#	.	8g#	.	.	.	.
8c#	.	8e#	.	8g#	.	.	.	.
8c#J	.	8e#J	.	8g#J	.	.	.	.
4c#	.	4e#	.	4g#	.	8ccc#L]	.	.
.	.	.	.	.	.	(16bb#XL	.	.
.	.	.	.	.	.	16ccc#JJ)	.	.
4r	.	4r	.	4r	.	(16bb#LL	.	.
.	.	.	.	.	.	16ccc#	.	.
.	.	.	.	.	.	16fff#	.	.
.	.	.	.	.	.	16eee#JJ)	.	.
=175	=175	=175	=175	=175	=175	=175	=175	=175
8r	.	8r	.	8r	.	(4ccc##X	.	.
8c#L	.	8f#L	.	8b#XL	.	.	.	.
8c#	.	8f#	.	8b#	.	[4ddd#	.	#viio64
8c#J	.	8f#J	.	8b#J	.	.	.	.
4c#	.	4f#	.	4b#	.	8ddd#L])	.	.
.	.	.	.	.	.	(16ccc##L	.	.
.	.	.	.	.	.	16ddd#JJ)	.	.
4r	.	4r	.	4r	.	(16ccc##LL	.	.
.	.	.	.	.	.	16ddd#	.	.
.	.	.	.	.	.	16ggg#	.	.
.	.	.	.	.	.	16fff#JJ)	.	.
=176	=176	=176	=176	=176	=176	=176	=176	=176
!LO:TX:b:t=cresc.	!	!LO:TX:b:t=cresc.	!	!LO:TX:b:t=cresc.	!	!LO:TX:b:t=cresc.	!	!
4r	.	4r	.	4r	.	(16ddd##XLL	.	.
.	.	.	.	.	.	16eee#)	.	.
.	.	.	.	.	.	(16ddd##	.	.
.	.	.	.	.	.	16eee#JJ)	.	.
4c#	.	4g#	.	4b	.	(16ddd##LL	.	viio6
.	.	.	.	.	.	16eee#	.	.
.	.	.	.	.	.	16aaa#	.	.
.	.	.	.	.	.	16ggg#JJ)	.	.
4r	.	4r	.	4r	.	(16eee#LL	.	.
.	.	.	.	.	.	16fff#)	.	.
.	.	.	.	.	.	(16eee#	.	.
.	.	.	.	.	.	16fff#JJ)	.	.
4c#	.	4f#	.	4a#	.	(16eee#LL	.	I
.	.	.	.	.	.	16fff#	.	.
.	.	.	.	.	.	16bbb	.	.
.	.	.	.	.	.	16aaa#JJ)	.	.
=177	=177	=177	=177	=177	=177	=177	=177	=177
4r	.	4r	.	4r	.	(16ggg#LL	.	.
.	.	.	.	.	.	16aaa#	.	.
.	.	.	.	.	.	16ggg#	.	.
.	.	.	.	.	.	16fff##XJJ	.	.
4C#'	f	4e#'	f	4b' 4gg#	f	16ggg#LL	f	viio]
.	.	.	.	.	.	16aaa#	p	.
.	.	.	.	.	.	16bbb	.	.
.	.	.	.	.	.	16aaa#JJ	.	.
2r	.	2r	.	2r	.	16bbbLL	.	.
.	.	.	.	.	.	16ggg#	.	.
.	.	.	.	.	.	16eee#	.	.
.	.	.	.	.	.	16ccc#JJ	.	.
.	.	.	.	.	.	16bbLL	.	.
.	.	.	.	.	.	16gg#	.	.
.	.	.	.	.	.	16ee#	.	.
.	.	.	.	.	.	16bJJ)	.	.
=178	=178	=178	=178	=178	=178	=178	=178	=178
4F#'	p	4c#'	p	4f#'	p	4a#'	.	I
4.A#	sf	4.c#	sf	4.f#	sf	4.cc#	sf	I6
8A#'L	.	8c#'L	.	8f#'L	.	8cc#'L	.	.
8G#'	.	8c#'	.	8b'	.	8ee#'	.	V43
8F#'J	.	8c#'J	.	8a#'J	.	8ff#'J	.	I
=179	=179	=179	=179	=179	=179	=179	=179	=179
(4E#	.	(4c#	.	(4g#	.	(8gg#L	.	V6
.	.	.	.	.	.	8ee#J)	.	.
4G#	.	4e#	.	4b	.	2cc#	.	V
4C#	.	4g#	.	4e#	.	.	.	.
.	.	.	.	.	.	16qqcc#/	.	V65
4E#)	.	4c#)	.	4g#)	.	(8bL	.	.
.	.	.	.	.	.	16a#L	.	.
.	.	.	.	.	.	16bJJ)	.	.
=180	=180	=180	=180	=180	=180	=180	=180	=180
!	!	!	!LO:DY:a	!	!	!	!	!
4F#'	p	4c#'	p p	4c#'	.	4a#'	p	I
4.A#	sf	4.c#	sf	4.f#	sf	4.cc#	sf	I6
8A#'L	.	8c#'L	.	8f#'L	.	8cc#'L	.	.
8G#'	.	8c#'	.	8b'	.	8ee#'	.	V43
8F#'J	.	8c#'J	.	8a#'J	.	8ff#'J	.	I
=181	=181	=181	=181	=181	=181	=181	=181	=181
(4E#	.	(4c#	.	(4g#	.	(8gg#L	.	V6
.	.	.	.	.	.	8ee#J)	.	.
4G#	.	4e#	.	4b	.	2cc#	.	V
4C#	.	4g#	.	4e#	.	.	.	.
.	.	.	.	.	.	16qqcc#/	.	V65
4E#)	.	4c#)	.	4g#)	.	(8bL	.	.
.	.	.	.	.	.	16a#L	.	.
.	.	.	.	.	.	16bJJ)	.	.
=182	=182	=182	=182	=182	=182	=182	=182	=182
4F#'	.	4c#'	.	4c#'	.	4a#'	.	I
4.A#	sf	4.c#	sf	4.f#	sf	4.cc#	sf	I6
8A#'L	.	8c#'L	.	8f#'L	.	8cc#'L	.	.
8G#'	.	8c#'	.	8b'	.	8ee#'	.	V43
8F#'J	.	8c#'J	.	8a#'J	.	8ff#'J	.	I
=183	=183	=183	=183	=183	=183	=183	=183	=183
(8F#L	.	(8c#L	.	8a	.	(8ff#L	.	.
8BJ)	.	8d#J)	.	4f#	sf	8dd#J)	.	IV
4.B	sf	4.d#	sf	.	.	4.dd#	sf	ii6
.	.	.	.	8f##X	.	.	.	.
.	.	.	.	8g#L	.	.	.	.
8B'L	.	8d#'L	.	8g#'	.	8dd#'L	.	.
8A#'	.	8d#'	.	8cc#'	.	8ff##X'	.	V43/ii
8G#'J	.	8d#'J	.	8b'J	.	8gg#'J	.	ii
=184	=184	=184	=184	=184	=184	=184	=184	=184
!LO:TX:b:t=cresc.	!	!LO:TX:b:t=cresc.	!	!LO:TX:b:t=cresc.	!	!LO:TX:b:t=cresc.	!	!
(2c#	.	(4c#	.	(2a#	.	(4gg#	.	V(64)
.	.	4cc#	.	.	.	2ff#	.	#viio7/V
4B#X	.	4dd#	.	4aX	.	.	.	.
4B)	.	4ddX)	.	4g#)	.	4ee#)	.	#viio43
=185	=185	=185	=185	=185	=185	=185	=185	=185
8A#'	p	8cc#'	p	8a#'	p	8ff#'	p	I6
4A#	sf	4f#	sf	4cc#	sf	4ccc#	sf	.
[8A#	.	[8f#	.	[8cc#	.	[8ccc#	.	.
8A#L]	.	8f#L]	.	8cc#L]	.	8ccc#L]	.	.
8A#'	.	8f#'	.	8cc#'	.	8ccc#'	.	.
8G#'	.	8c#'	.	8ee#'	.	8bb'	.	V43
8F#'J	.	8c#'J	.	8ff#'J	.	8aa#'J	.	I
=186	=186	=186	=186	=186	=186	=186	=186	=186
8BB'	.	8f#'	.	8dd#'	.	8gg#'	.	ii65
4B	sf	4g#	sf	4dd#	.	4ddd#	sf	ii6
[8B	.	[8g#	.	[8dd#	.	[8ddd#	.	.
8BL]	.	8g#L]	.	8dd#L]	.	8ddd#L]	.	.
8B'	.	8g#'	.	8dd#'	.	8ddd#'	.	.
8A#'	.	8d#'	.	8ff##X'	.	8ccc#'	.	V43/ii
8G#'J	.	8d#'J	.	8gg#'J	.	8bb'J	.	ii
=187	=187	=187	=187	=187	=187	=187	=187	=187
8C#'	.	8f##X'	.	8ee'	.	8aa#'	.	#viio43/ii
4c#	sf	4f##	sf	4ee	.	4eee	sf	.
[8c#	.	[8f##	.	[8ee	.	[8eee	.	.
8c#L]	.	8f##L]	.	8eeL]	.	8eeeL]	.	.
8c#'	.	8f##'	.	8ee'	.	8eee'	.	.
8B'	.	8g#'	.	8dd#'	.	8ddd#'	.	ii6
8A#'J	.	8g#'J	.	8cc##X'J	.	8ccc##X'J	.	V7/vi
=188	=188	=188	=188	=188	=188	=188	=188	=188
8B'L	.	8g#'L	.	8dd#'L	.	8ddd#'L	.	ii6
8B'	.	8g#'	.	8dd#'	.	8ddd#'	.	.
8B'	.	8g#'	.	8dd#'	.	8ddd#'	.	.
8A#'J	sf	8g#'J	sf	8cc##X'J	sf	8ccc##X'J	sf	V7/vi
8B'L	.	8g#'L	.	8dd#'L	.	8ddd#'L	.	ii6
8B'	.	8g#'	.	8dd#'	.	8ddd#'	.	.
8B'	.	8g#'	.	8dd#'	.	8ddd#'	.	.
8A#'J	sf	8g#'J	sf	8cc##'J	sf	8ccc##'J	sf	V7/vi
=189	=189	=189	=189	=189	=189	=189	=189	=189
!LO:TX:b:t=cresc.	!	!LO:TX:b:t=cresc.	!	!LO:TX:b:t=cresc.	!	!LO:TX:b:t=cresc.	!	!
(2B	.	(4g#	.	(4dd#	.	4ddd#'	.	ii6
.	.	4f#	.	4ff#	.	2ddd#	.	i.i6(6)
2AX	.	4d#	.	4dd#	.	.	.	.
.	.	4c#)	.	4cc#)	.	[4fff#	.	i6
=190	=190	=190	=190	=190	=190	=190	=190	=190
2G#	.	(2B#X	.	(2b#X	.	4fff#]	.	V7/V
.	.	.	.	.	.	2aaaX	.	#viio43/V
2F#)	.	2d#)	.	2dd#)	.	.	.	.
.	.	.	.	.	.	(4b#X	.	.
=191	=191	=191	=191	=191	=191	=191	=191	=191
4E#	.	4G#	.	4g#	.	16cc#LL)	.	I.V6
.	.	.	.	.	.	(16c#	.	.
.	.	.	.	.	.	16d#	.	.
.	.	.	.	.	.	16c#JJ	.	.
4r	.	4r	.	4r	.	16e#LL	.	.
.	.	.	.	.	.	16d#	.	.
.	.	.	.	.	.	16f#	.	.
.	.	.	.	.	.	16e#JJ	.	.
2r	.	2r	.	2r	.	16g#LL	.	.
.	.	.	.	.	.	16f#	.	.
.	.	.	.	.	.	16a#	.	.
.	.	.	.	.	.	16g#JJ	.	.
.	.	.	.	.	.	16bLL	.	.
.	.	.	.	.	.	16a#	.	.
.	.	.	.	.	.	16cc#	.	.
.	.	.	.	.	.	16bJJ	.	.
=192	=192	=192	=192	=192	=192	=192	=192	=192
(4B	.	(4b	.	2r	.	16dd#LL	.	V2
.	.	.	.	.	.	16cc#	.	.
.	.	.	.	.	.	16ee#	.	.
.	.	.	.	.	.	16dd#JJ	.	.
4G#	.	4g#	.	.	.	16ff#LL	.	.
.	.	.	.	.	.	16ee#	.	.
.	.	.	.	.	.	16gg#	.	.
.	.	.	.	.	.	16ff#JJ	.	.
4E#	.	4e#	.	4r	.	16aa#LL	.	V6
.	.	.	.	.	.	16gg#	.	.
.	.	.	.	.	.	16bb	.	.
.	.	.	.	.	.	16aa#JJ	.	.
4BB)	.	4B)	.	(4e#	.	16ccc#LL	.	V2
.	.	.	.	.	.	16bb#X	.	.
.	.	.	.	.	.	16ddd#	.	.
.	.	.	.	.	.	16ccc#JJ)	.	.
=193	=193	=193	=193	=193	=193	=193	=193	=193
4AA#	.	4A#	.	4f#)	.	8ccc#	.	I6
.	.	.	.	.	.	4fff#	.	.
4r	.	4r	.	4r	.	.	.	.
.	.	.	.	.	.	4aaa#	.	.
2r	.	8r	.	8r	.	.	.	.
.	.	8a#'L	.	8ff#'L	.	4cccc#	.	.
.	.	8f#'	.	8aa#'	.	.	.	.
.	.	8a#'J	.	8ff#'J	.	8ffff#	.	.
=194	=194	=194	=194	=194	=194	=194	=194	=194
!	!	!	!	!	!LO:DY:a	!	!	!
8c#L	f	8g#'L	f	8bb'L	f f	2c#	.	V7
8C#	.	8B'	.	8gg#'	.	.	.	.
8C#	.	8c#'	.	8ee#'	.	.	.	.
8C#J	.	8e#'J	.	8cc#'J	.	.	.	.
8C#L	.	8g#'L	.	8b'L	.	2ccc#t	.	.
8C#	.	8b'	.	8g#'	.	.	.	.
8C#	.	8cc#'	.	8e#'	.	.	.	.
8C#J	.	8c#'J 8b	.	8ee#'J	.	.	.	.
.	.	.	.	.	.	16qqbb#X/LL	.	.
.	.	.	.	.	.	16qqccc#/JJ	.	.
=195	=195	=195	=195	=195	=195	=195	=195	=195
4F#'	.	4c#' 4a#	.	4ff#'	.	4ff#'	.	I\\
4r	.	4r	.	4r	.	4r	.	.
4c#'	pp	4cc#'	pp	4cc#'	pp	4cc#'	pp	I
4A#'	.	4a#'	.	4a#'	.	4a#'	.	.
=196	=196	=196	=196	=196	=196	=196	=196	=196
4F#'	.	4f#'	.	4f#'	.	4f#'	.	.
4F##X'	.	4f##X'	.	4f##X'	.	4f##X'	.	.
4G#'	.	4g#'	.	4g#'	.	4g#'	.	ii
4A#'	.	4a#'	.	4a#'	.	4a#'	.	.
=197	=197	=197	=197	=197	=197	=197	=197	=197
4B	.	4b	.	4b	.	4b	.	.
4r	.	4r	.	4r	.	4r	.	.
4D	.	4d	.	4d	.	4d	.	.bVI
4r	.	4r	.	4r	.	4r	.	.
=198	=198	=198	=198	=198	=198	=198	=198	=198
4C#	.	4c#	.	4c#	.	4c#	.	V
4r	.	4r	.	4r	.	4r	.	.
!	!	!	!LO:DY:a	!	!LO:DY:a	!	!	!
4C#'	f	4g#'	f f	4c#' 4b	f	4c#' 4g# 4ee	.	V7
4C#'	.	4g#'	.	4c#' 4b	.	4c#' 4g# 4ee	.	.
=199	=199	=199	=199	=199	=199	=199	=199	=199
4F#'	.	4f#'	.	4c#' 4a#	.	4c#' 4a# 4ff#	.	I\\
4r	.	4r	.	4r	.	4r	.	.
4c#'	pp	4cc#'	pp	4cc#'	pp	4cc#'	pp	i.i
4A'	.	4a'	.	4aX'	.	4aX'	.	.
=200	=200	=200	=200	=200	=200	=200	=200	=200
4F#'	.	4f#'	.	4f#'	.	4f#'	.	.
4F##X'	.	4f##X'	.	4f##X'	.	4f##X'	.	.
4G#'	.	4g#'	.	4g#'	.	4g#'	.	ii
4A'	.	4a'	.	4a'	.	4a'	.	.
=201	=201	=201	=201	=201	=201	=201	=201	=201
4B	.	4b	.	4b	.	4b	.	.
4r	.	4r	.	4r	.	4r	.	.
4C#	.	4c#	.	4c#	.	4c#	.	V
4r	.	4r	.	4r	.	4r	.	.
=202	=202	=202	=202	=202	=202	=202	=202	=202
4D	.	4d	.	4d	.	4d	.	VI
4r	.	4r	.	4r	.	4r	.	.
!	!	!	!LO:DY:a	!	!LO:DY:a	!	!	!
4D'	f	4d'	f f	4d' 4ccX	f	4d' 4a 4ff#	.	V7/bII
4D'	.	4d'	.	4d' 4cc	.	4d' 4a 4ff#	.	.
=203	=203	=203	=203	=203	=203	=203	=203	=203
!	!	!	!LO:DY:a	!	!	!	!	!
2.D	ff	2.d	ff ff	2.d 2.b	.	2d 2b [2ggX	ff	.bII64
.	.	.	.	.	.	8ggL]	.	.
.	.	.	.	.	.	16qqaa/LL	.	.
.	.	.	.	.	.	16qqgg/	.	.
.	.	.	.	.	.	16qqff#/JJ	.	.
.	.	.	.	.	.	(8gg	.	.
4D#	sf	4d#	sf	(4ccX	sf	8bb	sf	#viio7/VII
.	.	.	.	.	.	8aaJ)	.	.
=204	=204	=204	=204	=204	=204	=204	=204	=204
2.E	.	2.e	.	4ccX)	.	(2aa	.	VII(4)
.	.	.	.	(4b	.	.	.	.
.	.	.	.	4ee)	.	8gg#L)	.	VII
.	.	.	.	.	.	(8gg#	.	.
4E	sf	4e	sf	[4dd	sf	8cccX	sf	VII7
.	.	.	.	.	.	8bbJ)	.	.
=205	=205	=205	=205	=205	=205	=205	=205	=205
(4FX	.	(4fX	.	8dd]	.	(8bbL	.	vi6
.	.	.	.	4a	sf	8aa)	.	.
4F#	sf	4f#	sf	.	.	8ddd'	sf	V65/bII
.	.	.	.	8dd#	.	8cccX'J	.	.
4GX	.	4gX	.	8ee	.	(8cccL	.	.bII
.	.	.	.	4b	sf	8bb)	.	.
4G#)	sf	4g#)	sf	.	.	8eee'	sf	#viio6
.	.	.	.	8ee#	.	8ddd'J	.	.
=206	=206	=206	=206	=206	=206	=206	=206	=206
(4A	.	(4a	.	8ff#	.	(8dddL	.	i6
.	.	.	.	4cc#	sf	8ccc#)	.	.
4A#	sf	4a#	sf	.	.	8fff#'	sf	V65/iv
.	.	.	.	8ff#	.	8eee'J	.	.
4B	.	4b	.	8ff#L	.	(8eeeL	.	iv(4)
.	.	.	.	(8ff#	.	8ddd)	.	iv
4B#X)	sf	4b#X)	sf	8gg#	sf	8ggg#'	sf	V6/V
.	.	.	.	8ff#J)	.	8fff#'J	.	.
=207	=207	=207	=207	=207	=207	=207	=207	=207
4c#	.	8cc#	.	8ee#	.	(8fff#L	.	V
.	.	8g#L	.	8ee#L	.	8eee#J)	.	.
4r	.	8g#	.	8ee#	.	2cccc#	.	VI
.	.	8g#	.	8ee#	.	.	.	.
4d	.	8r	.	8r	.	.	.	.
.	.	8f#	.	8ff#	.	.	.	.
4r	.	8f#	.	8ff#	.	(16bbbLL	.	.
.	.	.	.	.	.	16aaa	.	.
.	.	8f#J	.	8ff#J	.	16ggg#	.	.
.	.	.	.	.	.	16fff#JJ)	.	.
=208	=208	=208	=208	=208	=208	=208	=208	=208
4B	.	8r	.	8r	.	2dddd	.	ii%65
.	.	8f#L 8g#	.	8dddL	.	.	.	.
4r	.	8f# 8g#	.	8ddd	.	.	.	.
.	.	8f# 8g#	.	8ddd	.	.	.	.
4c#	.	8r	.	8r	.	2ee#	.	V7
.	.	8g#	.	8c# 8b	.	.	.	.
4r	.	8g#	.	8c# 8b	.	.	.	.
.	.	8g#J	.	8c#J 8b	.	.	.	.
=209	=209	=209	=209	=209	=209	=209	=209	=209
8F#'L	.	4f#	.	4c# 4a	.	4ff#	.	i\\
8c#'	p	.	.	.	.	.	.	.
8B'	.	2c# 2cc#	p	8r	.	8r	.	V2
8c#'J	.	.	.	8ee#'	p	8eee#'	p	.
8A'L	.	.	.	(8ff#L	.	(8fff#L	.	i6
8c#'	.	.	.	8cc#)	.	8ccc#)	.	.
8E#'	.	[4c# [4cc#	.	8r	.	8r	.	V65
8c#'J	.	.	.	8b'J	.	8bb'J	.	.
=210	=210	=210	=210	=210	=210	=210	=210	=210
8F#L	.	4c#] 4cc#]	.	(8aL	.	(8aaL	.	i
8c#	.	.	.	8cc#)	.	8ccc#)	.	.
8B	.	2c# 2cc#	.	8r	.	8r	.	V2
8c#J	.	.	.	8ee#'J	.	8eee#'J	.	.
8AL	.	.	.	(8ff#L	.	(8fff#L	.	i6
8c#	.	.	.	8cc#)	.	8ccc#)	.	.
8E#	.	[4c# [4cc#	.	8r	.	8r	.	V65
8c#J	.	.	.	8b'J	.	8bb'J	.	.
=211	=211	=211	=211	=211	=211	=211	=211	=211
!LO:TX:b:t=cresc.	!	!	!	!LO:TX:b:t=cresc.	!	!LO:TX:b:t=cresc.	!	!
8F#L	.	8c#L] 8cc#]	.	(8aL	.	(8aaL	.	i
!	!	!LO:TX:b:t=cresc.	!	!	!	!	!	!
8F#	.	8F#J	.	8cc#)	.	8ccc#)	.	.
8E	.	2F# 2f#	.	(8a#	.	(8aa#	.	V2/iv
8F#J	.	.	.	8cc#J)	.	8ccc#J)	.	.
8DL	.	.	.	(8bL	.	(8bbL	.	iv6
8F#	.	.	.	8dd)	.	8ddd)	.	.
8AA#	.	[4F# [4f#	.	(8cc#	.	(8ccc#	.	V65/iv
8F#J	.	.	.	8eeJ)	.	8eeeJ)	.	.
=212	=212	=212	=212	=212	=212	=212	=212	=212
8BBL	.	8F#L] 8f#]	.	(8ddL	.	(8dddL	.	iv
8B	.	8d	.	8ff#)	.	8fff#)	.	.
8BB	.	8r	.	(8g#	.	(8gg#	.	iio6
8BJ	.	8d	.	8bJ)	.	8bbJ)	.	.
8C#L	.	8r	.	(8aL	.	(8aaL	.	V(6)
8c#	.	8c#	.	8cc#)	.	8ccc#)	.	.
8C#	.	8r	.	(8e#	.	(8ee#	.	V7
8c#J	.	8BJ 8c#	.	8g#J)	.	8gg#J)	.	.
=213	=213	=213	=213	=213	=213	=213	=213	=213
!	!	!	!LO:DY:a	!	!	!	!	!
8F#L	f	16f#LL	f f	8aL	.	8ff#L	f	i\\
.	.	16f#	.	.	.	.	.	.
8F#	.	16A	.	8ccc#	.	8fff#	.	.
.	.	16AJJ	.	.	.	.	.	.
8E	.	16f#LL	.	(8aa#	.	8fff#	.	V2/iv
.	.	16f#	.	.	.	.	.	.
8F#J	.	16A#	.	8ccc#J)	.	8fff#J	.	.
.	.	16A#JJ	.	.	.	.	.	.
8DL	.	16f#LL	.	(8bbL	.	8fff#L	.	iv6
.	.	16f#	.	.	.	.	.	.
8F#	.	16B	.	8ddd)	.	8fff#	.	.
.	.	16BJJ	.	.	.	.	.	.
8AA#	.	16f#LL	.	(8ccc#	.	8fff#	.	V65/iv
.	.	16f#	.	.	.	.	.	.
8F#J	.	16c#	.	8eeeJ)	.	8fff#J	.	.
.	.	16c#JJ	.	.	.	.	.	.
=214	=214	=214	=214	=214	=214	=214	=214	=214
8BBL	.	16f#LL	.	(8dddL	.	(8fff#	.	iv
.	.	16f#	.	.	.	.	.	.
8B	.	16d	.	8fff#)	.	4dddd	.	iio6
.	.	16dJJ	.	.	.	.	.	.
8BB	.	16f#LL	.	(8gg#	.	.	.	.
.	.	16f#	.	.	.	.	.	.
8BJ	.	16d	.	8bbJ)	.	8bbb)	.	.
.	.	16dJJ	.	.	.	.	.	.
8C#L	.	16f#LL	.	(8aaL	.	(8aaaL	.	V(64)
.	.	16f#	.	.	.	.	.	.
8c#	.	16a	.	8ccc#)	.	8cccc#)	.	.
.	.	16aJJ	.	.	.	.	.	.
8C#	.	16g#LL	.	(8ee#	.	(8eee#	.	V7
.	.	16g#	.	.	.	.	.	.
8c#J	.	16b	.	8gg#J)	.	8ggg#J)	.	.
.	.	16bJJ	.	.	.	.	.	.
=215	=215	=215	=215	=215	=215	=215	=215	=215
8F#L	ff	4A	ff	4ff#	ff	[2fff#	ff	i[i6
8f#	.	.	.	.	.	.	.	.
8f#	.	[4a	.	[4cc#	.	.	.	.
8f#J	.	.	.	.	.	.	.	.
8f#L	.	8aL]	.	8cc#L]	.	8fff#L]	.	.
.	.	.	.	.	.	16qqggg#/LL	.	.
.	.	.	.	.	.	16qqfff#/	.	.
.	.	.	.	.	.	16qqeee#/JJ	.	.
8f#	.	(8a	.	(8cc#	.	(8fff#	.	.
8f#	sf	8b)	sf	8ee#)	sf	8aaa	sf	#viio64
8f#J	.	(8bJ	.	(8ee#J	.	8ggg#J)	.	.
=216	=216	=216	=216	=216	=216	=216	=216	=216
8f#L	.	8aL)	.	8ff#L)	.	8fff#'L	.	i6
8f#	.	(8a	.	(8cc#	.	(8fff#	.	.
8f#	sf	8b)	sf	8ee#)	sf	8aaa	sf	#viio64
8f#J	.	(8bJ	.	(8ee#J	.	8ggg#J)	.	.
8f#L	.	8aL)	.	8ff#L)	.	8fff#'L	.	i6
8f#	.	(8a	.	(8cc#	.	(8fff#	.	.
8f#	sf	8b)	sf	8ee#)	sf	8aaa	sf	#viio64
8f#J	.	(8bJ	.	(8ee#J	.	8ggg#J)	.	.
=217	=217	=217	=217	=217	=217	=217	=217	=217
8f#L	.	4a)	.	4ff#)	.	4fff#	.	i6
8F#	.	.	.	.	.	.	.	.
8F#	.	4r	.	4r	.	4r	.	.
8F#J	.	.	.	.	.	.	.	.
8F#L	.	8r	.	8r	.	8r	.	.
8F#	.	(8c#L	.	(8aL	.	(8ff#L	.	.
8F#	sf	8e#)	sf	8cc#	sf	8aa	sf	#viio
8F#J	.	8e#J	.	8bJ)	.	8gg#J)	.	.
=218	=218	=218	=218	=218	=218	=218	=218	=218
8F#L	.	4f#	.	4a	.	4ff#	.	i]
8FF#	.	.	.	.	.	.	.	.
8FF#	.	4r	.	4r	.	4r	.	i
8FF#J	.	.	.	.	.	.	.	.
8FF#'L	.	8r	.	2r	.	2r	.	.
(8FF#	.	(8F#L	.	.	.	.	.	.
!	!LO:DY:a	!	!	!	!	!	!	!
8AA	sf sf	8A	.	.	.	.	.	.
8GG#J)	.	8G#J)	.	.	.	.	.	.
=219	=219	=219	=219	=219	=219	=219	=219	=219
!	!	!	!	!	!LO:DY:a	!	!	!
4FF#	ff	4F#	ff	4f#	ff ff	4c# 4a 4ff#	.	.
4r	.	4r	.	4r	.	4r	.	.
4FF# 4F#	.	4F# 4f#	.	4f# 4a	.	4c# 4a 4ff#	.	.
4r	.	4r	.	4r	.	4r	.	.
=220	=220	=220	=220	=220	=220	=220	=220	=220
2.FF#; 2.F#	.	2.F#; 2.f#	.	2.f#; 2.a	.	2.c#; 2.a 2.ff#	.	i\\
=:|!	=:|!	=:|!	=:|!	=:|!	=:|!	=:|!	=:|!	=:|!
*-	*-	*-	*-	*-	*-	*-	*-	*-
!!!system-decoration: s1,s2,s3,s4
